;FLAVOR:Marlin
;TIME:5987
;Filament used: 4.01612m
;Layer height: 0.2
;MINX:29.5
;MINY:29.5
;MINZ:0.2
;MAXX:205.5
;MAXY:205.5
;MAXZ:0.4
;Generated with Cura_SteamEngine main
M140 S60
M105
M190 S60
M104 S200
M105
M109 S200
M82 ;absolute extrusion mode
; Ender 3 Custom Start G-code
G92 E0 ; Reset Extruder
G28 ; Home all axes
G1 Z2.0 F3000 ; Move Z Axis up little to prevent scratching of Heat Bed
G1 X0.1 Y20 Z0.3 F5000.0 ; Move to start position
G1 X0.1 Y200.0 Z0.3 F1500.0 E15 ; Draw the first line
G1 X0.4 Y200.0 Z0.3 F5000.0 ; Move to side a little
G1 X0.4 Y20 Z0.3 F1500.0 E30 ; Draw the second line
G92 E0 ; Reset Extruder
G1 Z2.0 F3000 ; Move Z Axis up little to prevent scratching of Heat Bed
G1 X5 Y20 Z0.3 F5000.0 ; Move over to prevent blob squish
G92 E0
G92 E0
G1 F1500 E-6
;LAYER_COUNT:2
;LAYER:0
M107
G0 F6000 X32.698 Y32.764 Z0.2
G0 X29.501 Y41.025
;TYPE:SKIRT
G1 F1500 E0
G1 F1200 X29.51 Y40.36 E0.02212
G1 X29.563 Y39.424 E0.0533
G1 X29.695 Y38.495 E0.08451
G1 X29.906 Y37.581 E0.11571
G1 X30.194 Y36.689 E0.14689
G1 X30.557 Y35.824 E0.17809
G1 X30.992 Y34.993 E0.20928
G1 X31.496 Y34.203 E0.24045
G1 X32.066 Y33.458 E0.27165
G1 X32.698 Y32.764 E0.30287
G1 X33.386 Y32.127 E0.33405
G1 X34.126 Y31.551 E0.36524
G1 X34.912 Y31.039 E0.39644
G1 X35.739 Y30.597 E0.42763
G1 X36.601 Y30.227 E0.45883
G1 X37.491 Y29.931 E0.49003
G1 X38.403 Y29.713 E0.52122
G1 X39.33 Y29.572 E0.5524
G1 X40.201 Y29.513 E0.58144
G1 X40.83 Y29.5 E0.60236
G1 X193.951 Y29.501 E5.69519
G1 X194.649 Y29.511 E5.71841
G1 X195.585 Y29.565 E5.74959
G1 X196.513 Y29.697 E5.78077
G1 X197.427 Y29.909 E5.81197
G1 X198.319 Y30.198 E5.84316
G1 X199.184 Y30.561 E5.87436
G1 X200.014 Y30.997 E5.90554
G1 X200.805 Y31.502 E5.93676
G1 X201.549 Y32.073 E5.96795
G1 X202.242 Y32.705 E5.99914
G1 X202.879 Y33.393 E6.03033
G1 X203.454 Y34.134 E6.06152
G1 X203.965 Y34.92 E6.09271
G1 X204.407 Y35.748 E6.12392
G1 X204.776 Y36.61 E6.15511
G1 X205.071 Y37.5 E6.1863
G1 X205.289 Y38.412 E6.21748
G1 X205.429 Y39.34 E6.2487
G1 X205.487 Y40.201 E6.2774
G1 X205.5 Y40.83 E6.29833
G1 X205.499 Y193.9 E11.38945
G1 X205.49 Y194.627 E11.41364
G1 X205.439 Y195.564 E11.44485
G1 X205.307 Y196.492 E11.47602
G1 X205.098 Y197.406 E11.50721
G1 X204.811 Y198.299 E11.53841
G1 X204.449 Y199.165 E11.56962
G1 X204.015 Y199.996 E11.60081
G1 X203.511 Y200.787 E11.632
G1 X202.942 Y201.532 E11.66318
G1 X202.311 Y202.227 E11.6944
G1 X201.624 Y202.865 E11.72558
G1 X200.885 Y203.442 E11.75677
G1 X200.099 Y203.954 E11.78797
G1 X199.273 Y204.397 E11.81914
G1 X198.411 Y204.769 E11.85037
G1 X197.522 Y205.065 E11.88153
G1 X196.61 Y205.285 E11.91274
G1 X195.683 Y205.426 E11.94392
G1 X194.799 Y205.487 E11.9734
G1 X194.17 Y205.5 E11.99432
G1 X41.065 Y205.499 E17.08661
G1 X40.367 Y205.49 E17.10983
G1 X39.431 Y205.438 E17.14101
G1 X38.502 Y205.306 E17.17222
G1 X37.588 Y205.096 E17.20341
G1 X36.695 Y204.809 E17.23461
G1 X35.83 Y204.446 E17.26581
G1 X34.999 Y204.012 E17.29699
G1 X34.208 Y203.508 E17.32819
G1 X33.463 Y202.938 E17.35939
G1 X32.769 Y202.307 E17.39058
G1 X32.132 Y201.62 E17.42174
G1 X31.555 Y200.88 E17.45295
G1 X31.043 Y200.094 E17.48415
G1 X30.6 Y199.267 E17.51536
G1 X30.229 Y198.406 E17.54654
G1 X29.933 Y197.516 E17.57774
G1 X29.714 Y196.604 E17.60893
G1 X29.573 Y195.677 E17.64012
G1 X29.513 Y194.788 E17.66975
G1 X29.5 Y194.158 E17.69071
G1 X29.501 Y41.025 E22.78394
G0 F6000 X29.901 Y41.031
G1 F1200 X29.91 Y40.366 E22.80606
G1 X29.962 Y39.446 E22.8367
G1 X30.094 Y38.535 E22.86732
G1 X30.305 Y37.639 E22.89794
G1 X30.592 Y36.764 E22.92857
G1 X30.955 Y35.918 E22.95918
G1 X31.389 Y35.106 E22.98981
G1 X31.892 Y34.335 E23.02043
G1 X32.461 Y33.611 E23.05105
G1 X33.089 Y32.939 E23.08164
G1 X33.774 Y32.323 E23.11228
G1 X34.51 Y31.77 E23.1429
G1 X35.291 Y31.282 E23.17353
G1 X36.111 Y30.864 E23.20415
G1 X36.965 Y30.519 E23.23478
G1 X37.845 Y30.249 E23.2654
G1 X38.745 Y30.057 E23.296
G1 X39.659 Y29.943 E23.32664
G1 X40.212 Y29.913 E23.34506
G1 X40.83 Y29.9 E23.36562
G1 X193.945 Y29.901 E28.45824
G1 X194.643 Y29.911 E28.48146
G1 X195.562 Y29.964 E28.51208
G1 X196.473 Y30.097 E28.5427
G1 X197.369 Y30.308 E28.57332
G1 X198.243 Y30.596 E28.60392
G1 X199.09 Y30.959 E28.63457
G1 X199.901 Y31.394 E28.66518
G1 X200.671 Y31.898 E28.69579
G1 X201.395 Y32.467 E28.72642
G1 X202.067 Y33.097 E28.75705
G1 X202.682 Y33.782 E28.78767
G1 X203.235 Y34.518 E28.81829
G1 X203.722 Y35.299 E28.8489
G1 X204.139 Y36.12 E28.87953
G1 X204.484 Y36.974 E28.91017
G1 X204.753 Y37.854 E28.94077
G1 X204.945 Y38.755 E28.97141
G1 X205.058 Y39.668 E29.00201
G1 X205.087 Y40.212 E29.02013
G1 X205.1 Y40.83 E29.04069
G1 X205.099 Y193.895 E34.13165
G1 X205.09 Y194.622 E34.15583
G1 X205.039 Y195.541 E34.18645
G1 X204.908 Y196.453 E34.21709
G1 X204.698 Y197.349 E34.2477
G1 X204.412 Y198.224 E34.27832
G1 X204.051 Y199.071 E34.30894
G1 X203.617 Y199.883 E34.33956
G1 X203.115 Y200.655 E34.37019
G1 X202.547 Y201.38 E34.40082
G1 X201.919 Y202.053 E34.43144
G1 X201.235 Y202.669 E34.46206
G1 X200.5 Y203.223 E34.49267
G1 X199.72 Y203.712 E34.52329
G1 X198.9 Y204.131 E34.55392
G1 X198.047 Y204.477 E34.58453
G1 X197.167 Y204.748 E34.61516
G1 X196.267 Y204.941 E34.64577
G1 X195.353 Y205.056 E34.67641
G1 X194.788 Y205.087 E34.69523
G1 X194.17 Y205.1 E34.71579
G1 X41.07 Y205.099 E39.80792
G1 X40.372 Y205.09 E39.83113
G1 X39.453 Y205.038 E39.86175
G1 X38.542 Y204.907 E39.89236
G1 X37.646 Y204.697 E39.92297
G1 X36.771 Y204.41 E39.9536
G1 X35.924 Y204.048 E39.98423
G1 X35.112 Y203.614 E40.01486
G1 X34.341 Y203.112 E40.04546
G1 X33.616 Y202.544 E40.07609
G1 X32.943 Y201.915 E40.10673
G1 X32.328 Y201.231 E40.13732
G1 X31.774 Y200.496 E40.16794
G1 X31.286 Y199.715 E40.19857
G1 X30.867 Y198.895 E40.22919
G1 X30.521 Y198.042 E40.25981
G1 X30.251 Y197.162 E40.29042
G1 X30.058 Y196.261 E40.32107
G1 X29.944 Y195.348 E40.35167
G1 X29.913 Y194.777 E40.37069
G1 X29.9 Y194.158 E40.39129
G1 X29.901 Y41.031 E45.48431
G0 F6000 X30.301 Y41.036
G1 F1200 X30.31 Y40.371 E45.50643
G1 X30.362 Y39.469 E45.53648
G1 X30.494 Y38.576 E45.56651
G1 X30.704 Y37.698 E45.59653
G1 X30.991 Y36.841 E45.62659
G1 X31.353 Y36.014 E45.65662
G1 X31.786 Y35.222 E45.68664
G1 X32.288 Y34.471 E45.71668
G1 X32.855 Y33.767 E45.74675
G1 X33.481 Y33.117 E45.77676
G1 X34.162 Y32.524 E45.8068
G1 X34.894 Y31.994 E45.83686
G1 X35.669 Y31.531 E45.86688
G1 X36.482 Y31.138 E45.89692
G1 X37.327 Y30.818 E45.92697
G1 X38.196 Y30.575 E45.95698
G1 X39.084 Y30.409 E45.98703
G1 X40.223 Y30.313 E46.02504
G1 X40.83 Y30.3 E46.04524
G1 X193.939 Y30.301 E51.13766
G1 X194.637 Y30.311 E51.16088
G1 X195.539 Y30.364 E51.19093
G1 X196.432 Y30.496 E51.22096
G1 X197.31 Y30.707 E51.25099
G1 X198.166 Y30.995 E51.28103
G1 X198.993 Y31.357 E51.31106
G1 X199.785 Y31.792 E51.34111
G1 X200.536 Y32.294 E51.37116
G1 X201.239 Y32.861 E51.4012
G1 X201.889 Y33.488 E51.43123
G1 X202.481 Y34.17 E51.46127
G1 X203.011 Y34.901 E51.4913
G1 X203.473 Y35.677 E51.52134
G1 X203.866 Y36.49 E51.55137
G1 X204.184 Y37.335 E51.5814
G1 X204.427 Y38.205 E51.61145
G1 X204.592 Y39.093 E51.64149
G1 X204.687 Y40.223 E51.6792
G1 X204.7 Y40.83 E51.6994
G1 X204.699 Y193.89 E56.79019
G1 X204.69 Y194.617 E56.81438
G1 X204.639 Y195.519 E56.84442
G1 X204.508 Y196.413 E56.87448
G1 X204.299 Y197.291 E56.90449
G1 X204.013 Y198.148 E56.93454
G1 X203.652 Y198.976 E56.96459
G1 X203.22 Y199.768 E56.99459
G1 X202.719 Y200.52 E57.02465
G1 X202.153 Y201.224 E57.05469
G1 X201.528 Y201.875 E57.08471
G1 X200.847 Y202.469 E57.11476
G1 X200.116 Y203 E57.14481
G1 X199.342 Y203.464 E57.17483
G1 X198.529 Y203.858 E57.20488
G1 X197.685 Y204.178 E57.2349
G1 X196.815 Y204.423 E57.26496
G1 X195.928 Y204.589 E57.29497
G1 X194.777 Y204.687 E57.33339
G1 X194.17 Y204.7 E57.35359
G1 X41.075 Y204.699 E62.44555
G1 X40.377 Y204.69 E62.46877
G1 X39.476 Y204.639 E62.49878
G1 X38.582 Y204.507 E62.52884
G1 X37.704 Y204.298 E62.55886
G1 X36.847 Y204.011 E62.58892
G1 X36.02 Y203.65 E62.61893
G1 X35.227 Y203.217 E62.64898
G1 X34.476 Y202.716 E62.67901
G1 X33.772 Y202.15 E62.70905
G1 X33.121 Y201.524 E62.73909
G1 X32.528 Y200.843 E62.76912
G1 X31.998 Y200.112 E62.79915
G1 X31.534 Y199.337 E62.8292
G1 X31.14 Y198.524 E62.85925
G1 X30.82 Y197.68 E62.88927
G1 X30.576 Y196.81 E62.91932
G1 X30.41 Y195.922 E62.94937
G1 X30.313 Y194.767 E62.98792
G1 X30.3 Y194.158 E63.00818
G1 X30.301 Y41.036 E68.10104
G1 F1500 E62.10104
;MESH:diffuser.stl
G0 F6000 X39.835 Y41.036
G0 X41.1 Y193.9
;TYPE:WALL-INNER
G1 F1500 E68.10104
G1 F1200 X193.9 Y193.9 E73.18319
G1 X193.9 Y41.1 E78.26533
G1 X41.1 Y41.1 E83.34748
G1 X41.1 Y193.9 E88.42963
G0 F6000 X40.7 Y194.3
;TYPE:WALL-OUTER
G1 F1200 X194.3 Y194.3 E93.53839
G1 X194.3 Y40.7 E98.64714
G1 X40.7 Y40.7 E103.7559
G1 X40.7 Y194.3 E108.86466
G0 F6000 X40.97 Y194.03
G0 X41.2 Y193.54
G0 X41.46 Y193.54
;TYPE:SKIN
G1 F1200 X193.54 Y193.54 E113.92286
G1 X193.54 Y41.46 E118.98106
G1 X41.46 Y41.46 E124.03926
G1 X41.46 Y193.54 E129.09746
G0 F6000 X41.735 Y193.339
G1 F1200 X41.659 Y193.263 E129.10104
G0 F6000 X41.659 Y192.697
G1 F1200 X42.301 Y193.339 E129.13124
G0 F6000 X42.866 Y193.339
G1 F1200 X41.659 Y192.132 E129.18801
G0 F6000 X41.659 Y191.566
G1 F1200 X43.432 Y193.339 E129.27141
G0 F6000 X43.998 Y193.339
G1 F1200 X41.659 Y191 E129.38143
G0 F6000 X41.659 Y190.435
G1 F1200 X44.563 Y193.339 E129.51802
G0 F6000 X45.129 Y193.339
G1 F1200 X41.659 Y189.869 E129.68124
G0 F6000 X41.659 Y189.303
G1 F1200 X45.695 Y193.339 E129.87108
G0 F6000 X46.261 Y193.339
G1 F1200 X41.659 Y188.738 E130.08752
G0 F6000 X41.659 Y188.172
G1 F1200 X46.826 Y193.339 E130.33056
G0 F6000 X47.392 Y193.339
G1 F1200 X41.659 Y187.606 E130.60022
G0 F6000 X41.659 Y187.041
G1 F1200 X47.958 Y193.339 E130.89648
G0 F6000 X48.523 Y193.339
G1 F1200 X41.659 Y186.475 E131.21935
G0 F6000 X41.659 Y185.909
G1 F1200 X49.089 Y193.339 E131.56883
G0 F6000 X49.655 Y193.339
G1 F1200 X41.659 Y185.344 E131.94491
G0 F6000 X41.659 Y184.778
G1 F1200 X50.22 Y193.339 E132.3476
G0 F6000 X50.786 Y193.339
G1 F1200 X41.659 Y184.212 E132.7769
G0 F6000 X41.659 Y183.646
G1 F1200 X51.352 Y193.339 E133.23283
G0 F6000 X51.917 Y193.339
G1 F1200 X41.659 Y183.081 E133.71534
G0 F6000 X41.659 Y182.515
G1 F1200 X52.483 Y193.339 E134.22447
G0 F6000 X53.049 Y193.339
G1 F1200 X41.659 Y181.949 E134.76022
G0 F6000 X41.659 Y181.384
G1 F1200 X53.614 Y193.339 E135.32254
G0 F6000 X54.18 Y193.339
G1 F1200 X41.659 Y180.818 E135.91149
G0 F6000 X41.659 Y180.252
G1 F1200 X54.746 Y193.339 E136.52706
G0 F6000 X55.312 Y193.339
G1 F1200 X41.659 Y179.687 E137.16924
G0 F6000 X41.659 Y179.121
G1 F1200 X55.877 Y193.339 E137.83801
G0 F6000 X56.443 Y193.339
G1 F1200 X41.659 Y178.555 E138.5334
G0 F6000 X41.659 Y177.99
G1 F1200 X57.009 Y193.339 E139.2554
G0 F6000 X57.574 Y193.339
G1 F1200 X41.659 Y177.424 E140.00399
G0 F6000 X41.659 Y176.858
G1 F1200 X58.14 Y193.339 E140.7792
G0 F6000 X58.706 Y193.339
G1 F1200 X41.659 Y176.293 E141.58102
G0 F6000 X41.659 Y175.727
G1 F1200 X59.271 Y193.339 E142.40943
G0 F6000 X59.837 Y193.339
G1 F1200 X41.659 Y175.161 E143.26447
G0 F6000 X41.659 Y174.595
G1 F1200 X60.403 Y193.339 E144.14613
G0 F6000 X60.968 Y193.339
G1 F1200 X41.659 Y174.03 E145.05437
G0 F6000 X41.659 Y173.464
G1 F1200 X61.534 Y193.339 E145.98923
G0 F6000 X62.1 Y193.339
G1 F1200 X41.659 Y172.898 E146.95071
G0 F6000 X41.659 Y172.333
G1 F1200 X62.665 Y193.339 E147.93877
G0 F6000 X63.231 Y193.339
G1 F1200 X41.659 Y171.767 E148.95345
G0 F6000 X41.659 Y171.201
G1 F1200 X63.797 Y193.339 E149.99475
G0 F6000 X64.362 Y193.339
G1 F1200 X41.659 Y170.636 E151.06263
G0 F6000 X41.659 Y170.07
G1 F1200 X64.928 Y193.339 E152.15713
G0 F6000 X65.494 Y193.339
G1 F1200 X41.659 Y169.504 E153.27826
G0 F6000 X41.659 Y168.939
G1 F1200 X66.06 Y193.339 E154.42598
G0 F6000 X66.625 Y193.339
G1 F1200 X41.659 Y168.373 E155.60031
G0 F6000 X41.659 Y167.807
G1 F1200 X67.191 Y193.339 E156.80125
G0 F6000 X67.757 Y193.339
G1 F1200 X41.659 Y167.242 E158.0288
G0 F6000 X41.659 Y166.676
G1 F1200 X68.322 Y193.339 E159.28295
G0 F6000 X68.888 Y193.339
G1 F1200 X41.659 Y166.11 E160.56371
G0 F6000 X41.659 Y165.545
G1 F1200 X69.454 Y193.339 E161.87108
G0 F6000 X70.019 Y193.339
G1 F1200 X41.659 Y164.979 E163.20505
G0 F6000 X41.659 Y164.413
G1 F1200 X70.585 Y193.339 E164.56564
G0 F6000 X71.151 Y193.339
G1 F1200 X41.659 Y163.847 E165.95285
G0 F6000 X41.659 Y163.282
G1 F1200 X71.716 Y193.339 E167.36664
G0 F6000 X72.282 Y193.339
G1 F1200 X41.659 Y162.716 E168.80705
G0 F6000 X41.659 Y162.15
G1 F1200 X72.848 Y193.339 E170.27409
G0 F6000 X73.413 Y193.339
G1 F1200 X41.659 Y161.585 E171.7677
G0 F6000 X41.659 Y161.019
G1 F1200 X73.979 Y193.339 E173.28793
G0 F6000 X74.545 Y193.339
G1 F1200 X41.659 Y160.453 E174.83479
G0 F6000 X41.659 Y159.888
G1 F1200 X75.111 Y193.339 E176.40825
G0 F6000 X75.676 Y193.339
G1 F1200 X41.659 Y159.322 E178.0083
G0 F6000 X41.659 Y158.756
G1 F1200 X76.242 Y193.339 E179.63498
G0 F6000 X76.808 Y193.339
G1 F1200 X41.659 Y158.191 E181.28826
G0 F6000 X41.659 Y157.625
G1 F1200 X77.373 Y193.339 E182.96813
G0 F6000 X77.939 Y193.339
G1 F1200 X41.659 Y157.059 E184.67463
G0 F6000 X41.659 Y156.494
G1 F1200 X78.505 Y193.339 E186.40773
G0 F6000 X79.07 Y193.339
G1 F1200 X41.659 Y155.928 E188.16743
G0 F6000 X41.659 Y155.362
G1 F1200 X79.636 Y193.339 E189.95375
G0 F6000 X80.202 Y193.339
G1 F1200 X41.659 Y154.796 E191.7667
G0 F6000 X41.659 Y154.231
G1 F1200 X80.767 Y193.339 E193.60622
G0 F6000 X81.333 Y193.339
G1 F1200 X41.659 Y153.665 E195.47236
G0 F6000 X41.659 Y153.099
G1 F1200 X81.899 Y193.339 E197.36513
G0 F6000 X82.464 Y193.339
G1 F1200 X41.659 Y152.534 E199.28447
G0 F6000 X41.659 Y151.968
G1 F1200 X83.03 Y193.339 E201.23044
G0 F6000 X83.596 Y193.339
G1 F1200 X41.659 Y151.402 E203.20302
G0 F6000 X41.659 Y150.837
G1 F1200 X84.161 Y193.339 E205.20219
G0 F6000 X84.727 Y193.339
G1 F1200 X41.659 Y150.271 E207.22797
G0 F6000 X41.659 Y149.705
G1 F1200 X85.293 Y193.339 E209.28038
G0 F6000 X85.859 Y193.339
G1 F1200 X41.659 Y149.14 E211.35939
G0 F6000 X41.659 Y148.574
G1 F1200 X86.424 Y193.339 E213.465
G0 F6000 X86.99 Y193.339
G1 F1200 X41.659 Y148.008 E215.59723
G0 F6000 X41.659 Y147.443
G1 F1200 X87.556 Y193.339 E217.75606
G0 F6000 X88.121 Y193.339
G1 F1200 X41.659 Y146.877 E219.94149
G0 F6000 X41.659 Y146.311
G1 F1200 X88.687 Y193.339 E222.15355
G0 F6000 X89.253 Y193.339
G1 F1200 X41.659 Y145.746 E224.3922
G0 F6000 X41.659 Y145.18
G1 F1200 X89.818 Y193.339 E226.65745
G0 F6000 X90.384 Y193.339
G1 F1200 X41.659 Y144.614 E228.94932
G0 F6000 X41.659 Y144.048
G1 F1200 X90.95 Y193.339 E231.26782
G0 F6000 X91.515 Y193.339
G1 F1200 X41.659 Y143.483 E233.6129
G0 F6000 X41.659 Y142.917
G1 F1200 X92.081 Y193.339 E235.98459
G0 F6000 X92.647 Y193.339
G1 F1200 X41.659 Y142.351 E238.38291
G0 F6000 X41.659 Y141.786
G1 F1200 X93.212 Y193.339 E240.80781
G0 F6000 X93.778 Y193.339
G1 F1200 X41.659 Y141.22 E243.25932
G0 F6000 X41.659 Y140.654
G1 F1200 X94.344 Y193.339 E245.73747
G0 F6000 X94.909 Y193.339
G1 F1200 X41.659 Y140.089 E248.24218
G0 F6000 X41.659 Y139.523
G1 F1200 X95.475 Y193.339 E250.77352
G0 F6000 X96.041 Y193.339
G1 F1200 X41.659 Y138.957 E253.33148
G0 F6000 X41.659 Y138.392
G1 F1200 X96.607 Y193.339 E255.91605
G0 F6000 X97.172 Y193.339
G1 F1200 X41.659 Y137.826 E258.52721
G0 F6000 X41.659 Y137.26
G1 F1200 X97.738 Y193.339 E261.16499
G0 F6000 X98.304 Y193.339
G1 F1200 X41.659 Y136.695 E263.82938
G0 F6000 X41.659 Y136.129
G1 F1200 X98.869 Y193.339 E266.52036
G0 F6000 X99.435 Y193.339
G1 F1200 X41.659 Y135.563 E269.23796
G0 F6000 X41.659 Y134.997
G1 F1200 X100.001 Y193.339 E271.98219
G0 F6000 X100.566 Y193.339
G1 F1200 X41.659 Y134.432 E274.753
G0 F6000 X41.659 Y133.866
G1 F1200 X101.132 Y193.339 E277.55043
G0 F6000 X101.698 Y193.339
G1 F1200 X41.659 Y133.3 E280.37448
G0 F6000 X41.659 Y132.735
G1 F1200 X102.263 Y193.339 E283.2251
G0 F6000 X102.829 Y193.339
G1 F1200 X41.659 Y132.169 E286.10235
G0 F6000 X41.659 Y131.603
G1 F1200 X103.395 Y193.339 E289.00622
G0 F6000 X103.96 Y193.339
G1 F1200 X41.659 Y131.038 E291.93667
G0 F6000 X41.659 Y130.472
G1 F1200 X104.526 Y193.339 E294.89374
G0 F6000 X105.092 Y193.339
G1 F1200 X41.659 Y129.906 E297.87744
G0 F6000 X41.659 Y129.341
G1 F1200 X105.658 Y193.339 E300.88773
G0 F6000 X106.223 Y193.339
