;FLAVOR:Marlin
;TIME:42300
;Filament used: 28.9774m
;Layer height: 0.2
;MINX:27.5
;MINY:27.5
;MINZ:0.2
;MAXX:207.5
;MAXY:207.5
;MAXZ:24
;Generated with Cura_SteamEngine main
M140 S60
M105
M190 S60
M104 S200
M105
M109 S200
M82 ;absolute extrusion mode
; Ender 3 Custom Start G-code
G92 E0 ; Reset Extruder
G28 ; Home all axes
G1 Z2.0 F3000 ; Move Z Axis up little to prevent scratching of Heat Bed
G1 X0.1 Y20 Z0.3 F5000.0 ; Move to start position
G1 X0.1 Y200.0 Z0.3 F1500.0 E15 ; Draw the first line
G1 X0.4 Y200.0 Z0.3 F5000.0 ; Move to side a little
G1 X0.4 Y20 Z0.3 F1500.0 E30 ; Draw the second line
G92 E0 ; Reset Extruder
G1 Z2.0 F3000 ; Move Z Axis up little to prevent scratching of Heat Bed
G1 X5 Y20 Z0.3 F5000.0 ; Move over to prevent blob squish
G92 E0
G92 E0
G1 F1500 E-6
;LAYER_COUNT:120
;LAYER:0
M107
G0 F6000 X30.698 Y30.764 Z0.2
G0 X27.501 Y39.025
;TYPE:SKIRT
G1 F1500 E0
G1 F1200 X27.51 Y38.36 E0.02212
G1 X27.563 Y37.424 E0.0533
G1 X27.695 Y36.495 E0.08451
G1 X27.906 Y35.581 E0.11571
G1 X28.194 Y34.689 E0.14689
G1 X28.557 Y33.824 E0.17809
G1 X28.992 Y32.993 E0.20928
G1 X29.496 Y32.203 E0.24045
G1 X30.066 Y31.458 E0.27165
G1 X30.698 Y30.764 E0.30287
G1 X31.386 Y30.127 E0.33405
G1 X32.126 Y29.551 E0.36524
G1 X32.912 Y29.039 E0.39644
G1 X33.739 Y28.597 E0.42763
G1 X34.601 Y28.227 E0.45883
G1 X35.491 Y27.931 E0.49003
G1 X36.403 Y27.713 E0.52122
G1 X37.33 Y27.572 E0.5524
G1 X38.201 Y27.513 E0.58144
G1 X38.83 Y27.5 E0.60236
G1 X195.951 Y27.501 E5.82823
G1 X196.649 Y27.511 E5.85145
G1 X197.585 Y27.565 E5.88263
G1 X198.513 Y27.697 E5.91381
G1 X199.427 Y27.909 E5.94501
G1 X200.319 Y28.198 E5.9762
G1 X201.184 Y28.561 E6.0074
G1 X202.014 Y28.997 E6.03858
G1 X202.805 Y29.502 E6.0698
G1 X203.549 Y30.073 E6.10099
G1 X204.242 Y30.705 E6.13218
G1 X204.879 Y31.393 E6.16337
G1 X205.454 Y32.134 E6.19457
G1 X205.965 Y32.92 E6.22575
G1 X206.407 Y33.748 E6.25696
G1 X206.776 Y34.61 E6.28815
G1 X207.071 Y35.5 E6.31934
G1 X207.289 Y36.412 E6.35052
G1 X207.429 Y37.34 E6.38174
G1 X207.487 Y38.201 E6.41044
G1 X207.5 Y38.83 E6.43137
G1 X207.499 Y195.9 E11.65554
G1 X207.49 Y196.627 E11.67972
G1 X207.439 Y197.564 E11.71093
G1 X207.307 Y198.492 E11.7421
G1 X207.098 Y199.406 E11.77329
G1 X206.811 Y200.299 E11.80449
G1 X206.449 Y201.165 E11.8357
G1 X206.015 Y201.996 E11.86689
G1 X205.511 Y202.787 E11.89808
G1 X204.942 Y203.532 E11.92926
G1 X204.311 Y204.227 E11.96048
G1 X203.624 Y204.865 E11.99167
G1 X202.885 Y205.442 E12.02285
G1 X202.099 Y205.954 E12.05405
G1 X201.273 Y206.397 E12.08522
G1 X200.411 Y206.769 E12.11645
G1 X199.522 Y207.065 E12.14761
G1 X198.61 Y207.285 E12.17882
G1 X197.683 Y207.426 E12.21
G1 X196.799 Y207.487 E12.23948
G1 X196.17 Y207.5 E12.2604
G1 X39.065 Y207.499 E17.48574
G1 X38.367 Y207.49 E17.50895
G1 X37.431 Y207.438 E17.54013
G1 X36.502 Y207.306 E17.57134
G1 X35.588 Y207.096 E17.60253
G1 X34.695 Y206.809 E17.63373
G1 X33.83 Y206.446 E17.66493
G1 X32.999 Y206.012 E17.69611
G1 X32.208 Y205.508 E17.72731
G1 X31.463 Y204.938 E17.75851
G1 X30.769 Y204.307 E17.7897
G1 X30.132 Y203.62 E17.82087
G1 X29.555 Y202.88 E17.85208
G1 X29.043 Y202.094 E17.88328
G1 X28.6 Y201.267 E17.91448
G1 X28.229 Y200.406 E17.94566
G1 X27.933 Y199.516 E17.97686
G1 X27.714 Y198.604 E18.00805
G1 X27.573 Y197.677 E18.03924
G1 X27.513 Y196.788 E18.06888
G1 X27.5 Y196.158 E18.08983
G1 X27.501 Y39.025 E23.3161
G0 F6000 X27.901 Y39.031
G1 F1200 X27.91 Y38.366 E23.33822
G1 X27.962 Y37.446 E23.36887
G1 X28.094 Y36.535 E23.39948
G1 X28.305 Y35.639 E23.4301
G1 X28.592 Y34.764 E23.46073
G1 X28.955 Y33.918 E23.49135
G1 X29.389 Y33.106 E23.52197
G1 X29.892 Y32.335 E23.55259
G1 X30.461 Y31.611 E23.58321
G1 X31.089 Y30.939 E23.61381
G1 X31.774 Y30.323 E23.64445
G1 X32.51 Y29.77 E23.67507
G1 X33.291 Y29.282 E23.7057
G1 X34.111 Y28.864 E23.73631
G1 X34.965 Y28.519 E23.76694
G1 X35.845 Y28.249 E23.79756
G1 X36.745 Y28.057 E23.82817
G1 X37.659 Y27.943 E23.8588
G1 X38.212 Y27.913 E23.87722
G1 X38.83 Y27.9 E23.89778
G1 X195.945 Y27.901 E29.12345
G1 X196.643 Y27.911 E29.14666
G1 X197.562 Y27.964 E29.17728
G1 X198.473 Y28.097 E29.2079
G1 X199.369 Y28.308 E29.23852
G1 X200.243 Y28.596 E29.26913
G1 X201.09 Y28.959 E29.29978
G1 X201.901 Y29.394 E29.33038
G1 X202.671 Y29.898 E29.36099
G1 X203.395 Y30.467 E29.39162
G1 X204.067 Y31.097 E29.42226
G1 X204.682 Y31.782 E29.45288
G1 X205.235 Y32.518 E29.48349
G1 X205.722 Y33.299 E29.51411
G1 X206.139 Y34.12 E29.54473
G1 X206.484 Y34.974 E29.57537
G1 X206.753 Y35.854 E29.60597
G1 X206.945 Y36.755 E29.63661
G1 X207.058 Y37.668 E29.66721
G1 X207.087 Y38.212 E29.68533
G1 X207.1 Y38.83 E29.70589
G1 X207.099 Y195.895 E34.92989
G1 X207.09 Y196.622 E34.95408
G1 X207.039 Y197.541 E34.98469
G1 X206.908 Y198.453 E35.01533
G1 X206.698 Y199.349 E35.04594
G1 X206.412 Y200.224 E35.07656
G1 X206.051 Y201.071 E35.10718
G1 X205.617 Y201.883 E35.13781
G1 X205.115 Y202.655 E35.16843
G1 X204.547 Y203.38 E35.19907
G1 X203.919 Y204.053 E35.22968
G1 X203.235 Y204.669 E35.2603
G1 X202.5 Y205.223 E35.29091
G1 X201.72 Y205.712 E35.32153
G1 X200.9 Y206.131 E35.35216
G1 X200.047 Y206.477 E35.38277
G1 X199.167 Y206.748 E35.4134
G1 X198.267 Y206.941 E35.44402
G1 X197.353 Y207.056 E35.47465
G1 X196.788 Y207.087 E35.49347
G1 X196.17 Y207.1 E35.51403
G1 X39.07 Y207.099 E40.7392
G1 X38.372 Y207.09 E40.76242
G1 X37.453 Y207.038 E40.79303
G1 X36.542 Y206.907 E40.82365
G1 X35.646 Y206.697 E40.85425
G1 X34.771 Y206.41 E40.88488
G1 X33.924 Y206.048 E40.91552
G1 X33.112 Y205.614 E40.94614
G1 X32.341 Y205.112 E40.97674
G1 X31.616 Y204.544 E41.00737
G1 X30.943 Y203.915 E41.03801
G1 X30.328 Y203.231 E41.06861
G1 X29.774 Y202.496 E41.09922
G1 X29.286 Y201.715 E41.12985
G1 X28.867 Y200.895 E41.16048
G1 X28.521 Y200.042 E41.19109
G1 X28.251 Y199.162 E41.22171
G1 X28.058 Y198.261 E41.25236
G1 X27.944 Y197.348 E41.28296
G1 X27.913 Y196.777 E41.30198
G1 X27.9 Y196.158 E41.32257
G1 X27.901 Y39.031 E46.54864
G0 F6000 X28.301 Y39.036
G1 F1200 X28.31 Y38.371 E46.57076
G1 X28.362 Y37.469 E46.60081
G1 X28.494 Y36.576 E46.63083
G1 X28.704 Y35.698 E46.66086
G1 X28.991 Y34.841 E46.69092
G1 X29.353 Y34.014 E46.72094
G1 X29.786 Y33.222 E46.75096
G1 X30.288 Y32.471 E46.78101
G1 X30.855 Y31.767 E46.81107
G1 X31.481 Y31.117 E46.84109
G1 X32.162 Y30.524 E46.87112
G1 X32.894 Y29.994 E46.90118
G1 X33.669 Y29.531 E46.93121
G1 X34.482 Y29.138 E46.96124
G1 X35.327 Y28.818 E46.99129
G1 X36.196 Y28.575 E47.0213
G1 X37.084 Y28.409 E47.05135
G1 X38.223 Y28.313 E47.08937
G1 X38.83 Y28.3 E47.10956
G1 X195.939 Y28.301 E52.33503
G1 X196.637 Y28.311 E52.35825
G1 X197.539 Y28.364 E52.3883
G1 X198.432 Y28.496 E52.41832
G1 X199.31 Y28.707 E52.44836
G1 X200.166 Y28.995 E52.4784
G1 X200.993 Y29.357 E52.50842
G1 X201.785 Y29.792 E52.53848
G1 X202.536 Y30.294 E52.56852
G1 X203.239 Y30.861 E52.59856
G1 X203.889 Y31.488 E52.6286
G1 X204.481 Y32.17 E52.65864
G1 X205.011 Y32.901 E52.68867
G1 X205.473 Y33.677 E52.7187
G1 X205.866 Y34.49 E52.74874
G1 X206.184 Y35.335 E52.77877
G1 X206.427 Y36.205 E52.80881
G1 X206.592 Y37.093 E52.83885
G1 X206.687 Y38.223 E52.87657
G1 X206.7 Y38.83 E52.89676
G1 X206.699 Y195.89 E58.1206
G1 X206.69 Y196.617 E58.14478
G1 X206.639 Y197.519 E58.17483
G1 X206.508 Y198.413 E58.20488
G1 X206.299 Y199.291 E58.2349
G1 X206.013 Y200.148 E58.26495
G1 X205.652 Y200.976 E58.29499
G1 X205.22 Y201.768 E58.325
G1 X204.719 Y202.52 E58.35505
G1 X204.153 Y203.224 E58.3851
G1 X203.528 Y203.875 E58.41511
G1 X202.847 Y204.469 E58.44517
G1 X202.116 Y205 E58.47522
G1 X201.342 Y205.464 E58.50523
G1 X200.529 Y205.858 E58.53528
G1 X199.685 Y206.178 E58.5653
G1 X198.815 Y206.423 E58.59537
G1 X197.928 Y206.589 E58.62538
G1 X196.777 Y206.687 E58.6638
G1 X196.17 Y206.7 E58.68399
G1 X39.075 Y206.699 E63.90899
G1 X38.377 Y206.69 E63.93221
G1 X37.476 Y206.639 E63.96223
G1 X36.582 Y206.507 E63.99228
G1 X35.704 Y206.298 E64.0223
G1 X34.847 Y206.011 E64.05236
G1 X34.02 Y205.65 E64.08237
G1 X33.227 Y205.217 E64.11243
G1 X32.476 Y204.716 E64.14245
G1 X31.772 Y204.15 E64.1725
G1 X31.121 Y203.524 E64.20254
G1 X30.528 Y202.843 E64.23257
G1 X29.998 Y202.112 E64.2626
G1 X29.534 Y201.337 E64.29264
G1 X29.14 Y200.524 E64.32269
G1 X28.82 Y199.68 E64.35271
G1 X28.576 Y198.81 E64.38277
G1 X28.41 Y197.922 E64.41281
G1 X28.313 Y196.767 E64.45136
G1 X28.3 Y196.158 E64.47162
G1 X28.301 Y39.036 E69.69752
G1 F1500 E63.69752
;MESH:enclosure-with-port.stl
G0 F6000 X37.835 Y39.036
G0 X39.1 Y195.9
;TYPE:WALL-INNER
G1 F1500 E69.69752
G1 F1200 X195.9 Y195.9 E74.91271
G1 X195.9 Y39.1 E80.1279
G1 X39.1 Y39.1 E85.34309
G1 X39.1 Y195.9 E90.55828
G0 F6000 X38.7 Y196.3
;TYPE:WALL-OUTER
G1 F1200 X196.3 Y196.3 E95.80008
G1 X196.3 Y38.7 E101.04187
G1 X38.7 Y38.7 E106.28367
G1 X38.7 Y196.3 E111.52547
G0 F6000 X38.97 Y196.03
G0 X39.2 Y195.54
G0 X39.46 Y195.54
;TYPE:SKIN
G1 F1200 X195.54 Y195.54 E116.71671
G1 X195.54 Y39.46 E121.90795
G1 X39.46 Y39.46 E127.09919
G1 X39.46 Y117.5 E129.69482
G1 X39.46 Y195.54 E132.29044
G0 F6000 X39.776 Y195.339
G1 F1200 X39.659 Y195.222 E132.29594
G0 F6000 X39.659 Y194.657
G1 F1200 X40.341 Y195.339 E132.32802
G0 F6000 X40.907 Y195.339
G1 F1200 X39.659 Y194.091 E132.38672
G0 F6000 X39.659 Y193.525
G1 F1200 X41.473 Y195.339 E132.47205
G0 F6000 X42.038 Y195.339
G1 F1200 X39.659 Y192.96 E132.58395
G0 F6000 X39.659 Y192.394
G1 F1200 X42.604 Y195.339 E132.72247
G0 F6000 X43.17 Y195.339
G1 F1200 X39.659 Y191.828 E132.88762
G0 F6000 X39.659 Y191.263
G1 F1200 X43.735 Y195.339 E133.07934
G0 F6000 X44.301 Y195.339
G1 F1200 X39.659 Y190.697 E133.29769
G0 F6000 X39.659 Y190.131
G1 F1200 X44.867 Y195.339 E133.54265
G0 F6000 X45.433 Y195.339
G1 F1200 X39.659 Y189.566 E133.81422
G0 F6000 X39.659 Y189
G1 F1200 X45.998 Y195.339 E134.11239
G0 F6000 X46.564 Y195.339
G1 F1200 X39.659 Y188.434 E134.43718
G0 F6000 X39.659 Y187.869
G1 F1200 X47.13 Y195.339 E134.78857
G0 F6000 X47.695 Y195.339
G1 F1200 X39.659 Y187.303 E135.16656
G0 F6000 X39.659 Y186.737
G1 F1200 X48.261 Y195.339 E135.57117
G0 F6000 X48.827 Y195.339
G1 F1200 X39.659 Y186.172 E136.00238
G0 F6000 X39.659 Y185.606
G1 F1200 X49.392 Y195.339 E136.46019
G0 F6000 X49.958 Y195.339
G1 F1200 X39.659 Y185.04 E136.94462
G0 F6000 X39.659 Y184.474
G1 F1200 X50.524 Y195.339 E137.45568
G0 F6000 X51.089 Y195.339
G1 F1200 X39.659 Y183.909 E137.99331
G0 F6000 X39.659 Y183.343
G1 F1200 X51.655 Y195.339 E138.55757
G0 F6000 X52.221 Y195.339
G1 F1200 X39.659 Y182.777 E139.14844
G0 F6000 X39.659 Y182.212
G1 F1200 X52.786 Y195.339 E139.7659
G0 F6000 X53.352 Y195.339
G1 F1200 X39.659 Y181.646 E140.40998
G0 F6000 X39.659 Y181.08
G1 F1200 X53.918 Y195.339 E141.08068
G0 F6000 X54.483 Y195.339
G1 F1200 X39.659 Y180.515 E141.77795
G0 F6000 X39.659 Y179.949
G1 F1200 X55.049 Y195.339 E142.50185
G0 F6000 X55.615 Y195.339
G1 F1200 X39.659 Y179.383 E143.25237
G0 F6000 X39.659 Y178.818
G1 F1200 X56.181 Y195.339 E144.02949
G0 F6000 X56.746 Y195.339
G1 F1200 X39.659 Y178.252 E144.83321
G0 F6000 X39.659 Y177.686
G1 F1200 X57.312 Y195.339 E145.66355
G0 F6000 X57.878 Y195.339
G1 F1200 X39.659 Y177.121 E146.5205
G0 F6000 X39.659 Y176.555
G1 F1200 X58.443 Y195.339 E147.40404
G0 F6000 X59.009 Y195.339
G1 F1200 X39.659 Y175.989 E148.3142
G0 F6000 X39.659 Y175.424
G1 F1200 X59.575 Y195.339 E149.25097
G0 F6000 X60.14 Y195.339
G1 F1200 X39.659 Y174.858 E150.21433
G0 F6000 X39.659 Y174.292
G1 F1200 X60.706 Y195.339 E151.20432
G0 F6000 X61.272 Y195.339
G1 F1200 X39.659 Y173.726 E152.22093
G0 F6000 X39.659 Y173.161
G1 F1200 X61.837 Y195.339 E153.26411
G0 F6000 X62.403 Y195.339
G1 F1200 X39.659 Y172.595 E154.33392
G0 F6000 X39.659 Y172.029
G1 F1200 X62.969 Y195.339 E155.43035
G0 F6000 X63.534 Y195.339
G1 F1200 X39.659 Y171.464 E156.55336
G0 F6000 X39.659 Y170.898
G1 F1200 X64.1 Y195.339 E157.70299
G0 F6000 X64.666 Y195.339
G1 F1200 X39.659 Y170.332 E158.87924
G0 F6000 X39.659 Y169.767
G1 F1200 X65.232 Y195.339 E160.08209
G0 F6000 X65.797 Y195.339
G1 F1200 X39.659 Y169.201 E161.31154
G0 F6000 X39.659 Y168.635
G1 F1200 X66.363 Y195.339 E162.56762
G0 F6000 X66.929 Y195.339
G1 F1200 X39.659 Y168.07 E163.85029
G0 F6000 X39.659 Y167.504
G1 F1200 X67.494 Y195.339 E165.15956
G0 F6000 X68.06 Y195.339
G1 F1200 X39.659 Y166.938 E166.49546
G0 F6000 X39.659 Y166.373
G1 F1200 X68.626 Y195.339 E167.85795
G0 F6000 X69.191 Y195.339
G1 F1200 X39.659 Y165.807 E169.24705
G0 F6000 X39.659 Y165.241
G1 F1200 X69.757 Y195.339 E170.66277
G0 F6000 X70.323 Y195.339
G1 F1200 X39.659 Y164.675 E172.10511
G0 F6000 X39.659 Y164.11
G1 F1200 X70.888 Y195.339 E173.57402
G0 F6000 X71.454 Y195.339
G1 F1200 X39.659 Y163.544 E175.06956
G0 F6000 X39.659 Y162.978
G1 F1200 X72.02 Y195.339 E176.59173
G0 F6000 X72.585 Y195.339
G1 F1200 X39.659 Y162.413 E178.14046
G0 F6000 X39.659 Y161.847
G1 F1200 X73.151 Y195.339 E179.71582
G0 F6000 X73.717 Y195.339
G1 F1200 X39.659 Y161.281 E181.31781
G0 F6000 X39.659 Y160.716
G1 F1200 X74.282 Y195.339 E182.94637
G0 F6000 X74.848 Y195.339
G1 F1200 X39.659 Y160.15 E184.60155
G0 F6000 X39.659 Y159.584
G1 F1200 X75.414 Y195.339 E186.28336
G0 F6000 X75.98 Y195.339
G1 F1200 X39.659 Y159.019 E187.99176
G0 F6000 X39.659 Y158.453
G1 F1200 X76.545 Y195.339 E189.72677
G0 F6000 X77.111 Y195.339
G1 F1200 X39.659 Y157.887 E191.48839
G0 F6000 X39.659 Y157.322
G1 F1200 X77.677 Y195.339 E193.27662
G0 F6000 X78.242 Y195.339
G1 F1200 X39.659 Y156.756 E195.09145
G0 F6000 X39.659 Y156.19
G1 F1200 X78.808 Y195.339 E196.9329
G0 F6000 X79.374 Y195.339
G1 F1200 X39.659 Y155.625 E198.80094
G0 F6000 X39.659 Y155.059
G1 F1200 X79.939 Y195.339 E200.69559
G0 F6000 X80.505 Y195.339
G1 F1200 X39.659 Y154.493 E202.61686
G0 F6000 X39.659 Y153.927
G1 F1200 X81.071 Y195.339 E204.56476
G0 F6000 X81.636 Y195.339
G1 F1200 X39.659 Y153.362 E206.53922
G0 F6000 X39.659 Y152.796
G1 F1200 X82.202 Y195.339 E208.54032
G0 F6000 X82.768 Y195.339
G1 F1200 X39.659 Y152.23 E210.56803
G0 F6000 X39.659 Y151.665
G1 F1200 X83.333 Y195.339 E212.62232
G0 F6000 X83.899 Y195.339
G1 F1200 X39.659 Y151.099 E214.70324
G0 F6000 X39.659 Y150.533
G1 F1200 X84.465 Y195.339 E216.81077
G0 F6000 X85.031 Y195.339
G1 F1200 X39.659 Y149.968 E218.94491
G0 F6000 X39.659 Y149.402
G1 F1200 X85.596 Y195.339 E221.10565
G0 F6000 X86.162 Y195.339
G1 F1200 X39.659 Y148.836 E223.293
G0 F6000 X39.659 Y148.271
G1 F1200 X86.728 Y195.339 E225.50696
G0 F6000 X87.293 Y195.339
G1 F1200 X39.659 Y147.705 E227.74752
G0 F6000 X39.659 Y147.139
G1 F1200 X87.859 Y195.339 E230.0147
G0 F6000 X88.425 Y195.339
G1 F1200 X39.659 Y146.574 E232.30848
G0 F6000 X39.659 Y146.008
G1 F1200 X88.99 Y195.339 E234.62886
G0 F6000 X89.556 Y195.339
G1 F1200 X39.659 Y145.442 E236.97586
G0 F6000 X39.659 Y144.876
G1 F1200 X90.122 Y195.339 E239.34949
G0 F6000 X90.687 Y195.339
G1 F1200 X39.659 Y144.311 E241.74969
G0 F6000 X39.659 Y143.745
G1 F1200 X91.253 Y195.339 E244.17651
G0 F6000 X91.819 Y195.339
G1 F1200 X39.659 Y143.179 E246.62996
G0 F6000 X39.659 Y142.614
G1 F1200 X92.384 Y195.339 E249.10998
G0 F6000 X92.95 Y195.339
G1 F1200 X39.659 Y142.048 E251.61662
G0 F6000 X39.659 Y141.482
G1 F1200 X93.516 Y195.339 E254.14989
G0 F6000 X94.081 Y195.339
G1 F1200 X39.659 Y140.917 E256.70974
G0 F6000 X39.659 Y140.351
G1 F1200 X94.647 Y195.339 E259.2962
G0 F6000 X95.213 Y195.339
G1 F1200 X39.659 Y139.785 E261.90929
G0 F6000 X39.659 Y139.22
G1 F1200 X95.779 Y195.339 E264.54898
G0 F6000 X96.344 Y195.339
G1 F1200 X39.659 Y138.654 E267.21527
G0 F6000 X39.659 Y138.088
G1 F1200 X96.91 Y195.339 E269.90818
G0 F6000 X97.476 Y195.339
G1 F1200 X39.659 Y137.523 E272.62769
G0 F6000 X39.659 Y136.957
G1 F1200 X98.041 Y195.339 E275.3738
G0 F6000 X98.607 Y195.339
G1 F1200 X39.659 Y136.391 E278.14654
G0 F6000 X39.659 Y135.826
G1 F1200 X99.173 Y195.339 E280.94587
G0 F6000 X99.738 Y195.339
G1 F1200 X39.659 Y135.26 E283.7718
G0 F6000 X39.659 Y134.694
G1 F1200 X100.304 Y195.339 E286.62436
G0 F6000 X100.87 Y195.339
G1 F1200 X39.659 Y134.128 E289.50353
G0 F6000 X39.659 Y133.563
G1 F1200 X101.435 Y195.339 E292.40929
G0 F6000 X102.001 Y195.339
G1 F1200 X39.659 Y132.997 E295.34166
G0 F6000 X39.659 Y132.431
G1 F1200 X102.567 Y195.339 E298.30066
G0 F6000 X103.132 Y195.339
G1 F1200 X39.659 Y131.866 E301.28624
G0 F6000 X39.659 Y131.3
G1 F1200 X103.698 Y195.339 E304.29844
