;FLAVOR:Marlin
;TIME:2659
;Filament used: 1.67744m
;Layer height: 0.2
;MINX:49.251
;MINY:79
;MINZ:0.2
;MAXX:185.749
;MAXY:155.999
;MAXZ:10.8
;Generated with Cura_SteamEngine main
M140 S60
M105
M190 S60
M104 S200
M105
M109 S200
M82 ;absolute extrusion mode
; Ender 3 Custom Start G-code
G92 E0 ; Reset Extruder
G28 ; Home all axes
G1 Z2.0 F3000 ; Move Z Axis up little to prevent scratching of Heat Bed
G1 X0.1 Y20 Z0.3 F5000.0 ; Move to start position
G1 X0.1 Y200.0 Z0.3 F1500.0 E15 ; Draw the first line
G1 X0.4 Y200.0 Z0.3 F5000.0 ; Move to side a little
G1 X0.4 Y20 Z0.3 F1500.0 E30 ; Draw the second line
G92 E0 ; Reset Extruder
G1 Z2.0 F3000 ; Move Z Axis up little to prevent scratching of Heat Bed
G1 X5 Y20 Z0.3 F5000.0 ; Move over to prevent blob squish
G92 E0
G92 E0
G1 F1500 E-6
;LAYER_COUNT:29
;LAYER:0
M107
G0 F6000 X54.878 Y81.313 Z0.2
G0 X49.251 Y92.559
;TYPE:SKIRT
G1 F1500 E0
G1 F1200 X49.26 Y91.891 E0.02222
G1 X49.294 Y91.158 E0.04663
G1 X49.33 Y90.71 E0.06157
G1 X49.445 Y89.779 E0.09277
G1 X49.639 Y88.861 E0.12398
G1 X49.921 Y87.934 E0.15621
G1 X50.093 Y87.446 E0.17342
G1 X50.442 Y86.576 E0.2046
G1 X50.864 Y85.738 E0.2358
G1 X51.342 Y84.961 E0.26614
G1 X51.585 Y84.6 E0.28062
G1 X52.141 Y83.845 E0.3118
G1 X52.819 Y83.078 E0.34585
G1 X53.055 Y82.835 E0.35712
G1 X53.736 Y82.191 E0.38829
G1 X54.517 Y81.573 E0.42142
G1 X54.878 Y81.313 E0.43622
G1 X55.662 Y80.798 E0.46741
G1 X56.487 Y80.351 E0.49862
G1 X57.442 Y79.94 E0.5332
G1 X57.935 Y79.755 E0.55072
G1 X58.827 Y79.463 E0.58193
G1 X59.74 Y79.249 E0.61312
G1 X60.733 Y79.106 E0.64649
G1 X61.164 Y79.064 E0.66089
G1 X62.058 Y79.013 E0.69068
G1 X62.82 Y79.001 E0.71602
G1 X82.043 Y79 E1.35538
G1 X82.859 Y79.01 E1.38253
G1 X83.614 Y79.046 E1.40767
G1 X84.063 Y79.083 E1.42265
G1 X84.994 Y79.2 E1.45386
G1 X85.911 Y79.396 E1.48505
G1 X86.81 Y79.669 E1.5163
G1 X87.299 Y79.841 E1.53354
G1 X88.17 Y80.19 E1.56475
G1 X89.007 Y80.611 E1.59591
G1 X89.798 Y81.097 E1.62679
G1 X90.157 Y81.339 E1.64119
G1 X90.911 Y81.896 E1.67237
G1 X91.672 Y82.569 E1.70615
G1 X91.915 Y82.805 E1.71742
G1 X92.559 Y83.486 E1.74859
G1 X93.172 Y84.26 E1.78143
G1 X93.431 Y84.619 E1.79616
G1 X93.947 Y85.402 E1.82735
G1 X94.394 Y86.227 E1.85856
G1 X94.805 Y87.181 E1.8931
G1 X94.992 Y87.678 E1.91077
G1 X95.285 Y88.569 E1.94196
G1 X95.5 Y89.482 E1.97316
G1 X95.647 Y90.501 E2.0074
G1 X95.688 Y90.928 E2.02167
G1 X95.737 Y91.802 E2.05078
G1 X95.749 Y92.547 E2.07557
G1 X95.749 Y142.421 E3.73438
G1 X95.74 Y143.106 E3.75717
G1 X95.704 Y143.862 E3.78234
G1 X95.667 Y144.312 E3.79736
G1 X95.55 Y145.243 E3.82857
G1 X95.355 Y146.16 E3.85975
G1 X95.08 Y147.062 E3.89111
G1 X94.909 Y147.548 E3.90825
G1 X94.561 Y148.419 E3.93944
G1 X94.139 Y149.256 E3.97062
G1 X93.658 Y150.039 E4.00119
G1 X93.415 Y150.4 E4.01566
G1 X92.859 Y151.155 E4.04685
G1 X92.181 Y151.922 E4.08089
G1 X91.945 Y152.165 E4.09216
G1 X91.264 Y152.809 E4.12333
G1 X90.483 Y153.427 E4.15646
G1 X90.122 Y153.687 E4.17126
G1 X89.338 Y154.202 E4.20246
G1 X88.513 Y154.649 E4.23366
G1 X87.558 Y155.06 E4.26824
G1 X87.065 Y155.245 E4.28576
G1 X86.173 Y155.537 E4.31697
G1 X85.26 Y155.751 E4.34816
G1 X84.267 Y155.894 E4.38153
G1 X83.836 Y155.936 E4.39594
G1 X82.942 Y155.987 E4.42572
G1 X82.18 Y155.999 E4.45107
G1 X62.809 Y155.999 E5.09535
G1 X62.141 Y155.99 E5.11757
G1 X61.388 Y155.954 E5.14264
G1 X60.938 Y155.917 E5.15766
G1 X60.007 Y155.8 E5.18887
G1 X59.09 Y155.605 E5.22005
G1 X58.188 Y155.33 E5.25141
G1 X57.702 Y155.159 E5.26855
G1 X56.831 Y154.811 E5.29974
G1 X55.994 Y154.389 E5.33092
G1 X55.211 Y153.908 E5.36149
G1 X54.85 Y153.665 E5.37596
G1 X54.095 Y153.109 E5.40715
G1 X53.328 Y152.431 E5.44119
G1 X53.085 Y152.195 E5.45246
G1 X52.441 Y151.514 E5.48363
G1 X51.823 Y150.733 E5.51676
G1 X51.563 Y150.372 E5.53156
G1 X51.048 Y149.588 E5.56275
G1 X50.601 Y148.763 E5.59396
G1 X50.192 Y147.812 E5.62839
G1 X50.006 Y147.317 E5.64598
G1 X49.714 Y146.426 E5.67717
G1 X49.499 Y145.513 E5.70837
G1 X49.353 Y144.499 E5.74244
G1 X49.312 Y144.072 E5.75671
G1 X49.263 Y143.194 E5.78595
G1 X49.251 Y142.43 E5.81137
G1 X49.251 Y92.559 E7.47008
G0 F6000 X49.651 Y92.564
G1 F1200 X49.66 Y91.896 E7.4923
G1 X49.693 Y91.19 E7.51581
G1 X49.729 Y90.742 E7.53076
G1 X49.843 Y89.828 E7.5614
G1 X50.035 Y88.928 E7.592
G1 X50.298 Y88.067 E7.62195
G1 X50.47 Y87.579 E7.63916
G1 X50.813 Y86.725 E7.66977
G1 X51.23 Y85.904 E7.70039
G1 X51.674 Y85.184 E7.72853
G1 X51.917 Y84.823 E7.743
G1 X52.463 Y84.082 E7.77361
G1 X53.106 Y83.357 E7.80585
G1 X53.342 Y83.114 E7.81711
G1 X54.011 Y82.482 E7.84772
G1 X54.751 Y81.898 E7.87908
G1 X55.112 Y81.638 E7.89387
G1 X55.882 Y81.133 E7.9245
G1 X56.692 Y80.696 E7.95511
G1 X57.583 Y80.315 E7.98734
G1 X58.076 Y80.13 E8.00485
G1 X58.951 Y79.844 E8.03547
G1 X59.848 Y79.635 E8.06611
G1 X60.772 Y79.504 E8.09715
G1 X61.203 Y79.462 E8.11155
G1 X62.064 Y79.413 E8.14023
G1 X62.826 Y79.401 E8.16558
G1 X82.043 Y79.4 E8.80474
G1 X82.854 Y79.41 E8.83172
G1 X83.582 Y79.445 E8.85596
G1 X84.031 Y79.482 E8.87094
G1 X84.944 Y79.597 E8.90155
G1 X85.844 Y79.791 E8.93217
G1 X86.677 Y80.047 E8.96115
G1 X87.166 Y80.219 E8.97839
G1 X88.021 Y80.561 E9.00902
G1 X88.842 Y80.977 E9.03963
G1 X89.574 Y81.429 E9.06825
G1 X89.933 Y81.671 E9.08265
G1 X90.673 Y82.218 E9.11326
G1 X91.393 Y82.856 E9.14525
G1 X91.636 Y83.092 E9.15652
G1 X92.268 Y83.761 E9.18713
G1 X92.847 Y84.494 E9.2182
G1 X93.106 Y84.853 E9.23292
G1 X93.612 Y85.622 E9.26354
G1 X94.049 Y86.433 E9.29418
G1 X94.431 Y87.322 E9.32636
G1 X94.618 Y87.819 E9.34402
G1 X94.904 Y88.694 E9.37464
G1 X95.114 Y89.591 E9.40528
G1 X95.248 Y90.539 E9.43712
G1 X95.289 Y90.966 E9.45139
G1 X95.337 Y91.808 E9.47944
G1 X95.349 Y92.553 E9.50422
G1 X95.349 Y142.415 E11.16264
G1 X95.34 Y143.1 E11.18543
G1 X95.305 Y143.83 E11.20973
G1 X95.268 Y144.28 E11.22475
G1 X95.153 Y145.193 E11.25536
G1 X94.959 Y146.093 E11.28598
G1 X94.703 Y146.929 E11.31506
G1 X94.532 Y147.415 E11.3322
G1 X94.189 Y148.27 E11.36284
G1 X93.773 Y149.091 E11.39345
G1 X93.326 Y149.816 E11.42178
G1 X93.083 Y150.177 E11.43625
G1 X92.537 Y150.918 E11.46686
G1 X91.894 Y151.643 E11.49909
G1 X91.658 Y151.886 E11.51036
G1 X90.989 Y152.518 E11.54097
G1 X90.249 Y153.102 E11.57233
G1 X89.888 Y153.362 E11.58712
G1 X89.118 Y153.867 E11.61775
G1 X88.308 Y154.304 E11.64836
G1 X87.417 Y154.685 E11.68059
G1 X86.924 Y154.87 E11.6981
G1 X86.049 Y155.156 E11.72872
G1 X85.152 Y155.365 E11.75936
G1 X84.228 Y155.496 E11.7904
G1 X83.797 Y155.538 E11.8048
G1 X82.936 Y155.587 E11.83348
G1 X82.174 Y155.599 E11.85883
G1 X62.814 Y155.599 E12.50275
G1 X62.146 Y155.59 E12.52497
G1 X61.42 Y155.555 E12.54914
G1 X60.97 Y155.518 E12.56416
G1 X60.057 Y155.403 E12.59476
G1 X59.157 Y155.209 E12.62539
G1 X58.321 Y154.953 E12.65447
G1 X57.835 Y154.782 E12.6716
G1 X56.98 Y154.439 E12.70224
G1 X56.159 Y154.023 E12.73285
G1 X55.434 Y153.576 E12.76118
G1 X55.073 Y153.333 E12.77566
G1 X54.332 Y152.787 E12.80627
G1 X53.607 Y152.144 E12.8385
G1 X53.364 Y151.908 E12.84977
G1 X52.732 Y151.239 E12.88038
G1 X52.148 Y150.499 E12.91173
G1 X51.888 Y150.138 E12.92653
G1 X51.383 Y149.368 E12.95715
G1 X50.946 Y148.558 E12.98777
G1 X50.566 Y147.671 E13.01986
G1 X50.38 Y147.176 E13.03745
G1 X50.094 Y146.301 E13.06807
G1 X49.885 Y145.405 E13.09867
G1 X49.752 Y144.461 E13.13038
G1 X49.711 Y144.034 E13.14464
G1 X49.663 Y143.187 E13.17286
G1 X49.651 Y142.423 E13.19827
G1 X49.651 Y92.564 E14.85659
G0 F6000 X50.051 Y92.57
G1 F1200 X50.06 Y91.902 E14.87881
G1 X50.092 Y91.222 E14.90145
G1 X50.128 Y90.774 E14.9164
G1 X50.24 Y89.878 E14.94643
G1 X50.431 Y88.995 E14.97648
G1 X50.675 Y88.2 E15.00414
G1 X50.847 Y87.712 E15.02135
G1 X51.185 Y86.875 E15.05137
G1 X51.595 Y86.07 E15.08142
G1 X52.005 Y85.407 E15.10735
G1 X52.248 Y85.046 E15.12182
G1 X52.785 Y84.32 E15.15186
G1 X53.393 Y83.636 E15.18229
G1 X53.629 Y83.393 E15.19356
G1 X54.286 Y82.773 E15.22361
G1 X54.985 Y82.222 E15.25321
G1 X55.346 Y81.962 E15.26801
G1 X56.101 Y81.467 E15.29803
G1 X56.898 Y81.041 E15.32809
G1 X57.723 Y80.689 E15.35792
G1 X58.216 Y80.504 E15.37544
G1 X59.075 Y80.225 E15.40548
G1 X59.955 Y80.022 E15.43552
G1 X60.811 Y79.902 E15.46426
G1 X61.242 Y79.86 E15.47867
G1 X62.07 Y79.813 E15.50625
G1 X62.832 Y79.801 E15.5316
G1 X82.043 Y79.8 E16.17056
G1 X82.848 Y79.81 E16.19734
G1 X83.549 Y79.843 E16.22068
G1 X83.998 Y79.88 E16.23566
G1 X84.894 Y79.994 E16.2657
G1 X85.776 Y80.187 E16.29573
G1 X86.544 Y80.424 E16.32246
G1 X87.033 Y80.596 E16.33971
G1 X87.871 Y80.933 E16.36975
G1 X88.676 Y81.343 E16.39979
G1 X89.35 Y81.76 E16.42615
G1 X89.709 Y82.002 E16.44055
G1 X90.435 Y82.54 E16.47061
G1 X91.114 Y83.143 E16.50081
G1 X91.357 Y83.379 E16.51208
G1 X91.977 Y84.036 E16.54212
G1 X92.523 Y84.728 E16.57144
G1 X92.782 Y85.087 E16.58617
G1 X93.277 Y85.842 E16.61619
G1 X93.704 Y86.638 E16.64624
G1 X94.057 Y87.463 E16.67608
G1 X94.244 Y87.96 E16.69374
G1 X94.524 Y88.819 E16.72379
G1 X94.727 Y89.698 E16.7538
G1 X94.85 Y90.577 E16.78332
G1 X94.891 Y91.004 E16.79759
G1 X94.937 Y91.815 E16.8246
G1 X94.949 Y92.56 E16.84939
G1 X94.949 Y142.41 E18.5074
G1 X94.94 Y143.095 E18.53019
G1 X94.907 Y143.797 E18.55356
G1 X94.87 Y144.247 E18.56858
G1 X94.756 Y145.143 E18.59862
G1 X94.563 Y146.025 E18.62865
G1 X94.326 Y146.796 E18.65548
G1 X94.155 Y147.282 E18.67262
G1 X93.818 Y148.12 E18.70266
G1 X93.408 Y148.925 E18.7327
G1 X92.995 Y149.593 E18.75883
G1 X92.752 Y149.954 E18.7733
G1 X92.215 Y150.68 E18.80333
G1 X91.607 Y151.364 E18.83377
G1 X91.371 Y151.607 E18.84504
G1 X90.714 Y152.227 E18.87508
G1 X90.015 Y152.778 E18.90469
G1 X89.654 Y153.038 E18.91949
G1 X88.899 Y153.533 E18.94951
G1 X88.102 Y153.959 E18.97957
G1 X87.277 Y154.311 E19.0094
G1 X86.784 Y154.496 E19.02692
G1 X85.925 Y154.775 E19.05696
G1 X85.045 Y154.978 E19.08699
G1 X84.189 Y155.098 E19.11574
G1 X83.758 Y155.14 E19.13015
G1 X82.93 Y155.187 E19.15773
G1 X82.168 Y155.199 E19.18308
G1 X62.82 Y155.199 E19.82659
G1 X62.152 Y155.19 E19.84881
G1 X61.453 Y155.157 E19.87209
G1 X61.003 Y155.12 E19.88711
G1 X60.107 Y155.006 E19.91715
G1 X59.225 Y154.813 E19.94718
G1 X58.454 Y154.576 E19.974
G1 X57.968 Y154.405 E19.99114
G1 X57.13 Y154.068 E20.02118
G1 X56.325 Y153.658 E20.05123
G1 X55.657 Y153.245 E20.07735
G1 X55.296 Y153.002 E20.09182
G1 X54.57 Y152.465 E20.12186
G1 X53.886 Y151.857 E20.1523
G1 X53.643 Y151.621 E20.16356
G1 X53.023 Y150.964 E20.19361
G1 X52.472 Y150.265 E20.22321
G1 X52.212 Y149.904 E20.23801
G1 X51.717 Y149.149 E20.26804
G1 X51.291 Y148.352 E20.29809
G1 X50.941 Y147.531 E20.32778
G1 X50.755 Y147.036 E20.34537
G1 X50.475 Y146.177 E20.37542
G1 X50.272 Y145.297 E20.40545
G1 X50.15 Y144.423 E20.4348
G1 X50.109 Y143.996 E20.44907
G1 X50.063 Y143.181 E20.47622
G1 X50.051 Y142.417 E20.50164
G1 X50.051 Y92.57 E22.15955
G1 F1500 E16.15955
;MESH:Case_Upper_No_Text.STL
G0 F6000 X65.151 Y94.991
G0 X67.264 Y95.697
;TYPE:WALL-INNER
G1 F1500 E22.15955
G1 F1200 X66.653 Y95.749 E22.17995
G1 X66.161 Y95.623 E22.19684
G1 X65.787 Y95.438 E22.21072
G1 X65.36 Y95.011 E22.2308
G1 X65.103 Y94.466 E22.25085
G1 X65.056 Y93.954 E22.26795
G1 X65.074 Y93.745 E22.27492
G1 X65.177 Y93.361 E22.28815
G1 X65.362 Y92.987 E22.30202
G1 X65.789 Y92.56 E22.32211
G1 X66.335 Y92.302 E22.34219
G1 X66.961 Y92.249 E22.36309
G1 X67.439 Y92.377 E22.37955
G1 X67.813 Y92.562 E22.39343
G1 X68.239 Y92.988 E22.41346
G1 X68.454 Y93.442 E22.43017
G1 X68.509 Y93.646 E22.4372
G1 X68.553 Y94.151 E22.45406
G1 X68.396 Y94.718 E22.47363
G1 X68.224 Y95.026 E22.48536
G1 X67.811 Y95.44 E22.50481
G1 X67.264 Y95.697 E22.52491
G0 F6000 X68.247 Y95.142
G0 X67.895 Y94.79
;TYPE:WALL-OUTER
G1 F1200 X67.577 Y95.105 E22.5398
G1 X67.14 Y95.308 E22.55583
G1 X66.674 Y95.345 E22.57137
G1 X66.265 Y95.237 E22.58544
G1 X66.024 Y95.109 E22.59452
G1 X65.692 Y94.777 E22.61014
G1 X65.493 Y94.354 E22.62568
G1 X65.454 Y93.919 E22.64021
G1 X65.46 Y93.849 E22.64255
G1 X65.563 Y93.465 E22.65577
G1 X65.691 Y93.224 E22.66485
G1 X66.023 Y92.892 E22.68046
G1 X66.446 Y92.693 E22.69601
G1 X66.921 Y92.652 E22.71187
G1 X67.335 Y92.763 E22.72612
G1 X67.576 Y92.891 E22.7352
G1 X67.907 Y93.222 E22.75077
G1 X68.108 Y93.648 E22.76644
G1 X68.145 Y94.126 E22.78238
G1 X68.028 Y94.562 E22.7974
G1 X67.895 Y94.79 E22.80618
G1 F1500 E16.80618
G0 F6000 X68.247 Y95.142
G0 X68.7 Y94.303
G0 X76.675 Y95.179
G0 X78.658 Y95.701
;TYPE:WALL-INNER
G1 F1500 E22.80618
G1 F1200 X78.041 Y95.749 E22.82676
G1 X77.507 Y95.606 E22.84515
G1 X77.174 Y95.426 E22.85774
G1 X76.761 Y95.01 E22.87723
G1 X76.5 Y94.447 E22.89787
G1 X76.456 Y93.954 E22.91434
G1 X76.455 Y93.817 E22.91889
G1 X76.577 Y93.361 E22.93459
G1 X76.762 Y92.987 E22.94847
G1 X77.189 Y92.56 E22.96855
G1 X77.735 Y92.302 E22.98864
G1 X78.361 Y92.249 E23.00954
G1 X78.839 Y92.377 E23.02599
G1 X79.213 Y92.562 E23.03987
G1 X79.566 Y92.915 E23.05648
G1 X79.684 Y93.083 E23.0633
G1 X79.901 Y93.552 E23.08049
G1 X79.951 Y94.155 E23.10062
G1 X79.823 Y94.639 E23.11727
G1 X79.638 Y95.013 E23.13115
G1 X79.21 Y95.441 E23.15128
G1 X78.658 Y95.701 E23.17157
G0 F6000 X78.087 Y95.349
;TYPE:WALL-OUTER
G1 F1200 X77.639 Y95.23 E23.18699
G1 X77.426 Y95.108 E23.19515
G1 X77.092 Y94.777 E23.21079
G1 X76.897 Y94.361 E23.22607
G1 X76.854 Y93.919 E23.24084
G1 X76.86 Y93.849 E23.24318
G1 X76.963 Y93.465 E23.2564
G1 X77.091 Y93.224 E23.26548
G1 X77.423 Y92.892 E23.2811
G1 X77.846 Y92.693 E23.29665
G1 X78.321 Y92.652 E23.3125
G1 X78.735 Y92.763 E23.32676
G1 X78.976 Y92.891 E23.33583
G1 X79.307 Y93.222 E23.3514
G1 X79.508 Y93.649 E23.3671
G1 X79.549 Y94.115 E23.38266
G1 X79.437 Y94.535 E23.39712
G1 X79.308 Y94.777 E23.40624
G1 X78.973 Y95.107 E23.42188
G1 X78.554 Y95.308 E23.43734
G1 X78.087 Y95.349 E23.45293
G1 F1500 E17.45293
G0 F6000 X78.258 Y95.835
G0 X78.14 Y134.724
G0 X78.665 Y142.698
;TYPE:WALL-INNER
G1 F1500 E23.45293
G1 F1200 X78.039 Y142.751 E23.47382
G1 X77.561 Y142.623 E23.49028
G1 X77.187 Y142.438 E23.50416
G1 X76.76 Y142.011 E23.52424
G1 X76.5 Y141.461 E23.54448
G1 X76.456 Y140.954 E23.5614
G1 X76.465 Y140.783 E23.5671
G1 X76.604 Y140.281 E23.58442
G1 X76.776 Y139.973 E23.59616
G1 X77.167 Y139.587 E23.61443
G1 X77.471 Y139.425 E23.62589
G1 X77.061 Y139.135 E23.64259
G1 X76.751 Y138.694 E23.66052
G1 X76.607 Y138.189 E23.67799
G1 X76.601 Y136.293 E23.74105
G1 X76.748 Y135.816 E23.75765
G1 X77.056 Y135.37 E23.77568
G1 X77.511 Y135.048 E23.79422
G1 X78.024 Y134.903 E23.81195
G1 X78.474 Y134.923 E23.82693
G1 X78.882 Y135.043 E23.84107
G1 X79.332 Y135.355 E23.85929
G1 X79.654 Y135.809 E23.8778
G1 X79.796 Y136.324 E23.89557
G1 X79.8 Y138.198 E23.9579
G1 X79.66 Y138.668 E23.97421
G1 X79.352 Y139.124 E23.99251
G1 X78.941 Y139.419 E24.00934
G1 X79.242 Y139.594 E24.02092
G1 X79.634 Y139.982 E24.03926
G1 X79.854 Y140.442 E24.05622
G1 X79.909 Y140.646 E24.06325
G1 X79.951 Y141.155 E24.08024
G1 X79.823 Y141.639 E24.09689
G1 X79.638 Y142.013 E24.11077
G1 X79.211 Y142.44 E24.13085
G1 X78.665 Y142.698 E24.15094
G0 F6000 X78.554 Y142.307
;TYPE:WALL-OUTER
G1 F1200 X78.079 Y142.348 E24.16679
G1 X77.665 Y142.237 E24.18105
G1 X77.424 Y142.109 E24.19013
G1 X77.092 Y141.777 E24.20574
G1 X76.892 Y141.353 E24.22133
G1 X76.854 Y140.919 E24.23582
G1 X76.855 Y140.874 E24.23732
G1 X76.972 Y140.438 E24.25234
G1 X77.096 Y140.221 E24.26065
G1 X77.416 Y139.901 E24.2757
G1 F1185.2 X77.663 Y139.781 E24.28495
G1 F1156.6 X77.911 Y139.661 E24.29445
G1 F1148.3 X78.307 Y139.637 E24.30824
G1 F1179.4 X78.781 Y139.782 E24.32502
G1 F1200 X78.985 Y139.901 E24.33287
G1 X79.307 Y140.222 E24.348
G1 X79.508 Y140.647 E24.36363
G1 X79.549 Y141.115 E24.37926
G1 X79.437 Y141.535 E24.39372
G1 X79.309 Y141.776 E24.40279
G1 X78.977 Y142.108 E24.41841
G1 X78.554 Y142.307 E24.43396
G1 F1500 E18.43396
G0 F6000 X78.68 Y142.578
G0 X78.064 Y142.59
G0 X77.547 Y142.452
G0 X77.273 Y142.295
G0 X76.895 Y141.919
G0 X76.659 Y141.416
G0 X76.61 Y140.864
G0 X76.748 Y140.347
G0 X76.523 Y140.013
G0 X77.123 Y139.303
G1 F1500 E24.43396
G0 F6000 X77.691 Y139.089
G1 F1167.9 X77.351 Y138.852 E24.44812
G1 F1200 X77.123 Y138.53 E24.46124
G1 X77.006 Y138.128 E24.47517
G1 X77.003 Y136.336 E24.53477
G1 X77.109 Y135.995 E24.54665
G1 X77.345 Y135.654 E24.56044
G1 X77.684 Y135.413 E24.57427
G1 X78.092 Y135.304 E24.58832
G1 X78.408 Y135.317 E24.59884
G1 X78.705 Y135.411 E24.6092
