;FLAVOR:Marlin
;TIME:2278
;Filament used: 1.35522m
;Layer height: 0.2
;MINX:49
;MINY:54.601
;MINZ:0.2
;MAXX:186
;MAXY:192.702
;MAXZ:8
;Generated with Cura_SteamEngine main
M140 S60
M105
M190 S60
M104 S200
M105
M109 S200
M82 ;absolute extrusion mode
; Ender 3 Custom Start G-code
G92 E0 ; Reset Extruder
G28 ; Home all axes
G1 Z2.0 F3000 ; Move Z Axis up little to prevent scratching of Heat Bed
G1 X0.1 Y20 Z0.3 F5000.0 ; Move to start position
G1 X0.1 Y200.0 Z0.3 F1500.0 E15 ; Draw the first line
G1 X0.4 Y200.0 Z0.3 F5000.0 ; Move to side a little
G1 X0.4 Y20 Z0.3 F1500.0 E30 ; Draw the second line
G92 E0 ; Reset Extruder
G1 Z2.0 F3000 ; Move Z Axis up little to prevent scratching of Heat Bed
G1 X5 Y20 Z0.3 F5000.0 ; Move over to prevent blob squish
G92 E0
G92 E0
G1 F1500 E-6
;LAYER_COUNT:15
;LAYER:0
M107
G0 F6000 X149.673 Y61.85 Z0.2
G0 X149 Y66.817
;TYPE:SKIRT
G1 F1500 E0
G1 F1200 X149.01 Y65.525 E0.04297
G1 X149.058 Y64.588 E0.07418
G1 X149.184 Y63.659 E0.10536
G1 X149.39 Y62.744 E0.13656
G1 X149.673 Y61.85 E0.16774
G1 X150.031 Y60.983 E0.19894
G1 X150.461 Y60.149 E0.23015
G1 X150.961 Y59.356 E0.26133
G1 X151.527 Y58.608 E0.29253
G1 X152.154 Y57.911 E0.32371
G1 X152.838 Y57.269 E0.35491
G1 X153.575 Y56.689 E0.38611
G1 X154.358 Y56.173 E0.4173
G1 X155.183 Y55.726 E0.4485
G1 X156.042 Y55.351 E0.47968
G1 X156.93 Y55.05 E0.51086
G1 X157.841 Y54.826 E0.54207
G1 X158.768 Y54.68 E0.57328
G1 X159.701 Y54.614 E0.60439
G1 X160.33 Y54.601 E0.62531
G1 X174.451 Y54.602 E1.09498
G1 X175.149 Y54.612 E1.1182
G1 X176.085 Y54.666 E1.14938
G1 X177.013 Y54.798 E1.18056
G1 X177.927 Y55.01 E1.21176
G1 X178.819 Y55.299 E1.24295
G1 X179.684 Y55.662 E1.27415
G1 X180.514 Y56.098 E1.30533
G1 X181.305 Y56.603 E1.33655
G1 X182.049 Y57.174 E1.36774
G1 X182.742 Y57.806 E1.39893
G1 X183.379 Y58.494 E1.43012
G1 X183.954 Y59.235 E1.46132
G1 X184.465 Y60.021 E1.4925
G1 X184.907 Y60.849 E1.52371
G1 X185.276 Y61.711 E1.5549
G1 X185.571 Y62.601 E1.58609
G1 X185.789 Y63.513 E1.61727
G1 X185.929 Y64.441 E1.64849
G1 X185.987 Y65.302 E1.67719
G1 X186 Y65.931 E1.69812
G1 X185.999 Y67.011 E1.73404
G1 X185.988 Y67.8 E1.76028
G1 X185.935 Y68.737 E1.7915
G1 X185.875 Y69.23 E1.80801
G1 X185.818 Y69.622 E1.82119
G1 X185.643 Y70.543 E1.85237
G1 X185.391 Y71.447 E1.88358
G1 X185.151 Y72.109 E1.907
G1 X184.971 Y72.561 E1.92319
G1 X184.588 Y73.416 E1.95435
G1 X184.132 Y74.236 E1.98555
G1 X183.626 Y74.992 E2.01581
G1 X183.426 Y75.265 E2.02707
G1 X182.84 Y75.997 E2.05825
G1 X182.193 Y76.677 E2.08947
G1 X181.807 Y77.033 E2.10694
G1 X181.44 Y77.355 E2.12318
G1 X180.709 Y77.942 E2.15436
G1 X179.931 Y78.466 E2.18556
G1 X179.263 Y78.844 E2.21108
G1 X178.919 Y79.023 E2.22398
G1 X178.069 Y79.42 E2.25518
G1 X177.093 Y79.773 E2.2897
G1 X176.828 Y79.855 E2.29893
G1 X175.921 Y80.094 E2.33013
G1 X174.794 Y80.279 E2.36811
G1 X174.417 Y80.321 E2.38073
G1 X173.481 Y80.385 E2.41193
G1 X172.714 Y80.378 E2.43744
G1 X171.536 Y80.326 E2.47666
G1 X168.938 Y80.249 E2.56311
G1 X166.415 Y80.245 E2.64703
G1 X163.828 Y80.315 E2.7331
G1 X162.233 Y80.388 E2.78621
G1 X161.295 Y80.391 E2.81741
G1 X160.36 Y80.315 E2.84861
G1 X159.321 Y80.133 E2.88369
G1 X158.768 Y80.009 E2.90254
G1 X157.863 Y79.765 E2.93371
G1 X156.981 Y79.445 E2.96492
G1 X156.231 Y79.108 E2.99227
G1 X155.398 Y78.677 E3.02346
G1 X154.605 Y78.177 E3.05464
G1 X153.931 Y77.672 E3.08266
G1 X153.596 Y77.4 E3.09701
G1 X152.894 Y76.778 E3.1282
G1 X152.247 Y76.099 E3.1594
G1 X151.79 Y75.539 E3.18344
G1 X151.534 Y75.204 E3.19746
G1 X150.997 Y74.435 E3.22866
G1 X150.527 Y73.623 E3.25986
G1 X150.199 Y72.94 E3.28506
G1 X149.997 Y72.479 E3.3018
G1 X149.657 Y71.604 E3.33303
G1 X149.394 Y70.704 E3.36421
G1 X149.239 Y69.972 E3.3891
G1 X149.18 Y69.637 E3.40041
G1 X149.057 Y68.707 E3.43161
G1 X149.014 Y67.902 E3.45843
G1 X149 Y66.817 E3.49452
G0 F6000 X149.4 Y66.82
G1 F1200 X149.41 Y65.528 E3.53749
G1 X149.457 Y64.609 E3.5681
G1 X149.584 Y63.697 E3.59872
G1 X149.789 Y62.799 E3.62936
G1 X150.072 Y61.923 E3.65998
G1 X150.429 Y61.074 E3.69061
G1 X150.859 Y60.26 E3.72123
G1 X151.358 Y59.486 E3.75186
G1 X151.922 Y58.759 E3.78246
G1 X152.547 Y58.083 E3.81308
G1 X153.228 Y57.463 E3.84371
G1 X153.961 Y56.906 E3.87433
G1 X154.739 Y56.414 E3.90495
G1 X155.557 Y55.991 E3.93558
G1 X156.408 Y55.641 E3.96618
G1 X157.287 Y55.366 E3.99682
G1 X158.186 Y55.168 E4.02743
G1 X159.099 Y55.049 E4.05806
G1 X159.712 Y55.014 E4.07848
G1 X160.33 Y55.001 E4.09904
G1 X174.293 Y55.001 E4.56345
G1 X175.143 Y55.012 E4.59172
G1 X176.062 Y55.065 E4.62234
G1 X176.973 Y55.198 E4.65296
G1 X177.869 Y55.409 E4.68358
G1 X178.743 Y55.697 E4.71418
G1 X179.59 Y56.06 E4.74483
G1 X180.401 Y56.495 E4.77544
G1 X181.171 Y56.999 E4.80605
G1 X181.895 Y57.568 E4.83668
G1 X182.567 Y58.198 E4.86732
G1 X183.182 Y58.883 E4.89793
G1 X183.735 Y59.619 E4.92855
G1 X184.222 Y60.4 E4.95917
G1 X184.639 Y61.221 E4.98979
G1 X184.984 Y62.075 E5.02043
G1 X185.253 Y62.955 E5.05103
G1 X185.445 Y63.856 E5.08167
G1 X185.558 Y64.769 E5.11227
G1 X185.587 Y65.313 E5.13039
G1 X185.6 Y65.931 E5.15095
G1 X185.599 Y67.006 E5.1867
G1 X185.588 Y67.795 E5.21295
G1 X185.535 Y68.714 E5.24357
G1 X185.422 Y69.564 E5.27209
G1 X185.25 Y70.469 E5.30272
G1 X185 Y71.355 E5.33334
G1 X184.78 Y71.961 E5.35479
G1 X184.6 Y72.413 E5.37097
G1 X184.222 Y73.252 E5.40158
G1 X183.774 Y74.056 E5.43219
G1 X183.303 Y74.755 E5.46022
G1 X183.103 Y75.028 E5.47148
G1 X182.527 Y75.747 E5.50212
G1 X181.891 Y76.412 E5.53272
G1 X181.543 Y76.732 E5.54845
G1 X181.176 Y77.054 E5.56469
G1 X180.458 Y77.63 E5.5953
G1 X179.693 Y78.143 E5.62594
G1 X179.078 Y78.489 E5.64941
G1 X178.734 Y78.668 E5.66231
G1 X177.9 Y79.057 E5.69291
G1 X176.974 Y79.391 E5.72566
G1 X176.709 Y79.473 E5.73488
G1 X175.819 Y79.707 E5.76549
G1 X174.75 Y79.882 E5.80152
G1 X174.373 Y79.924 E5.81413
G1 X173.454 Y79.986 E5.84477
G1 X172.731 Y79.979 E5.86882
G1 X171.494 Y79.924 E5.91
G1 X168.951 Y79.849 E5.99462
G1 X166.405 Y79.845 E6.0793
G1 X163.85 Y79.914 E6.16431
G1 X162.214 Y79.989 E6.21878
G1 X161.294 Y79.991 E6.24938
G1 X160.376 Y79.913 E6.28002
G1 X159.409 Y79.743 E6.31268
G1 X158.856 Y79.619 E6.33153
G1 X157.967 Y79.379 E6.36215
G1 X156.709 Y78.889 E6.40706
G1 X156.399 Y78.745 E6.41843
G1 X155.582 Y78.322 E6.44903
G1 X154.805 Y77.829 E6.47963
G1 X154.183 Y77.361 E6.50552
G1 X153.848 Y77.089 E6.51987
G1 X153.16 Y76.478 E6.55048
G1 X152.526 Y75.81 E6.58111
G1 X152.108 Y75.296 E6.60315
G1 X151.852 Y74.961 E6.61717
G1 X151.325 Y74.206 E6.64779
G1 X150.866 Y73.408 E6.67841
G1 X150.565 Y72.779 E6.7016
G1 X150.363 Y72.318 E6.71834
G1 X150.031 Y71.46 E6.74894
G1 X149.774 Y70.576 E6.77956
G1 X149.633 Y69.903 E6.80243
G1 X149.574 Y69.568 E6.81375
G1 X149.454 Y68.655 E6.84437
G1 X149.414 Y67.896 E6.86965
G1 X149.4 Y66.82 E6.90544
G0 F6000 X149.8 Y66.823
G1 F1200 X149.81 Y65.531 E6.94842
G1 X149.857 Y64.629 E6.97846
G1 X149.984 Y63.735 E7.00849
G1 X150.189 Y62.855 E7.03854
G1 X150.471 Y61.998 E7.06855
G1 X150.828 Y61.168 E7.0986
G1 X151.257 Y60.373 E7.12865
G1 X151.754 Y59.62 E7.15866
G1 X152.317 Y58.913 E7.18872
G1 X152.939 Y58.259 E7.21874
G1 X153.617 Y57.662 E7.24878
G1 X154.345 Y57.128 E7.27881
G1 X155.118 Y56.66 E7.30887
G1 X155.929 Y56.262 E7.33891
G1 X156.771 Y55.938 E7.36892
G1 X157.64 Y55.689 E7.39899
G1 X158.527 Y55.518 E7.42903
G1 X159.723 Y55.414 E7.46896
G1 X160.33 Y55.401 E7.48915
G1 X174.293 Y55.401 E7.95357
G1 X175.137 Y55.412 E7.98164
G1 X176.039 Y55.465 E8.01169
G1 X176.932 Y55.597 E8.04172
G1 X177.81 Y55.808 E8.07175
G1 X178.666 Y56.096 E8.10179
G1 X179.493 Y56.458 E8.13181
G1 X180.285 Y56.893 E8.16187
G1 X181.036 Y57.395 E8.19191
G1 X181.739 Y57.962 E8.22195
G1 X182.389 Y58.589 E8.25199
G1 X182.981 Y59.271 E8.28203
G1 X183.511 Y60.002 E8.31206
G1 X183.973 Y60.778 E8.3421
G1 X184.366 Y61.591 E8.37213
G1 X184.684 Y62.436 E8.40216
G1 X184.927 Y63.306 E8.4322
G1 X185.092 Y64.194 E8.46224
G1 X185.187 Y65.324 E8.49996
G1 X185.2 Y65.931 E8.52015
G1 X185.199 Y67 E8.55571
G1 X185.188 Y67.789 E8.58195
G1 X185.083 Y69.115 E8.6262
G1 X185.026 Y69.507 E8.63937
G1 X184.856 Y70.394 E8.66941
G1 X184.609 Y71.262 E8.69942
G1 X184.408 Y71.813 E8.71893
G1 X184.228 Y72.265 E8.73511
G1 X183.857 Y73.088 E8.76514
G1 X183.415 Y73.876 E8.79519
G1 X182.98 Y74.519 E8.82101
G1 X182.78 Y74.792 E8.83227
G1 X182.215 Y75.496 E8.86229
G1 X181.279 Y76.431 E8.90629
G1 X180.912 Y76.753 E8.92253
G1 X180.208 Y77.318 E8.95256
G1 X179.456 Y77.819 E8.98261
G1 X178.893 Y78.134 E9.00407
G1 X178.549 Y78.313 E9.01696
G1 X177.73 Y78.694 E9.04701
G1 X176.856 Y79.009 E9.07791
G1 X176.591 Y79.091 E9.08713
G1 X175.717 Y79.32 E9.11718
G1 X174.705 Y79.484 E9.15128
G1 X174.328 Y79.526 E9.1639
G1 X173.427 Y79.586 E9.19393
G1 X172.749 Y79.579 E9.21648
G1 X171.594 Y79.528 E9.25494
G1 X168.928 Y79.449 E9.34365
G1 X166.394 Y79.445 E9.42793
G1 X163.822 Y79.514 E9.51351
G1 X162.196 Y79.589 E9.56764
G1 X161.293 Y79.591 E9.59768
G1 X160.393 Y79.512 E9.62773
G1 X159.496 Y79.353 E9.65803
G1 X158.943 Y79.229 E9.67688
G1 X158.072 Y78.992 E9.7069
G1 X156.878 Y78.527 E9.74952
G1 X156.568 Y78.383 E9.76089
G1 X155.767 Y77.966 E9.79092
G1 X155.005 Y77.481 E9.82096
G1 X154.436 Y77.051 E9.84468
G1 X154.101 Y76.779 E9.85904
G1 X153.425 Y76.179 E9.8891
G1 X152.806 Y75.522 E9.91912
G1 X152.425 Y75.053 E9.93922
G1 X152.169 Y74.718 E9.95324
G1 X151.653 Y73.977 E9.98328
G1 X151.205 Y73.193 E10.01331
G1 X150.932 Y72.619 E10.03445
G1 X150.73 Y72.158 E10.05119
G1 X150.404 Y71.315 E10.08125
G1 X150.154 Y70.447 E10.11129
G1 X150.027 Y69.833 E10.13215
G1 X149.968 Y69.498 E10.14346
G1 X149.85 Y68.603 E10.17349
G1 X149.814 Y67.889 E10.19727
G1 X149.8 Y66.823 E10.23272
G1 F1500 E4.23272
;MESH:pico-holder.stl(1)
G0 F6000 X159.335 Y66.823
G0 X163.266 Y67.115
;TYPE:WALL-INNER
G1 F1500 E10.23272
G1 F1200 X163.525 Y66.999 E10.24216
G1 X171.476 Y67.003 E10.50661
G1 X171.735 Y67.104 E10.51586
G1 X171.921 Y66.706 E10.53047
G1 X172.225 Y66.4 E10.54482
G1 X172.544 Y66.202 E10.55731
G1 X162.442 Y66.202 E10.8933
G1 X162.7 Y66.34 E10.90303
G1 X162.954 Y66.557 E10.91414
G1 X163.16 Y66.861 E10.92636
G1 X163.266 Y67.115 E10.93551
G1 F1500 E4.93551
G0 F6000 X163.197 Y66.74
G0 X163.178 Y67.375
G0 X163.154 Y67.94
G0 X163.002 Y68.305
G0 X162.66 Y68.698
G0 X162.265 Y68.916
G0 X161.682 Y68.992
G1 F1500 E10.93551
G0 F6000 X161.699 Y68.761
;TYPE:WALL-OUTER
G1 F1129.4 X161.234 Y68.625 E10.95263
G1 F1132.1 X160.882 Y68.327 E10.96889
G1 F1124.1 X160.661 Y67.864 E10.98711
G1 F1111.1 X160.654 Y67.399 E11.00381
G1 F1121.5 X160.678 Y67.313 E11.00699
G1 F1156.6 X160.831 Y66.977 E11.01973
G1 F1165 X161.1 Y66.667 E11.03379
G1 F1140.1 X161.46 Y66.486 E11.0479
G1 F1004.2 X161.672 Y66.392 E11.05711
G1 F963.9 X162.012 Y66.404 E11.0712
G1 F1106 X162.44 Y66.644 E11.08891
G1 F1200 X162.652 Y66.825 E11.09818
G1 X162.846 Y67.111 E11.10968
G1 F1165 X162.955 Y67.463 E11.1223
G1 F1134.8 X162.929 Y67.874 E11.13678
G1 F1137.4 X162.82 Y68.166 E11.14772
G1 F1142.9 X162.537 Y68.505 E11.16314
G1 F1140.1 X162.206 Y68.701 E11.17661
G1 F1129.4 X161.699 Y68.761 E11.19465
G0 F6000 X161.703 Y69.194
G1 F1113.7 X162.146 Y69.143 E11.21063
G1 F1111.1 X162.51 Y69.027 E11.22436
G1 F1106 X162.875 Y68.783 E11.2402
G1 F1108.5 X163.22 Y68.334 E11.26059
G1 F1121.5 X163.347 Y67.948 E11.27505
G1 F1118.9 X163.384 Y67.574 E11.28845
G1 F1134.8 X163.441 Y67.47 E11.29262
G1 F1185.2 X163.567 Y67.401 E11.29746
G1 F1200 X171.426 Y67.4 E11.55885
G1 F1170.7 X171.611 Y67.532 E11.5666
G1 F1137.4 X171.653 Y67.946 E11.5812
G1 F1118.9 X171.766 Y68.264 E11.59324
G1 F1111.1 X171.922 Y68.542 E11.60469
G1 F1116.3 X172.199 Y68.84 E11.61924
G1 F1111.1 X172.538 Y69.034 E11.63327
G1 F1121.5 X172.94 Y69.164 E11.64831
G1 X173.196 Y69.181 E11.65744
G1 F1116.3 X173.643 Y69.137 E11.6735
G1 F1118.9 X174.05 Y68.933 E11.68974
G1 X174.364 Y68.67 E11.70435
G1 F1129.4 X174.577 Y68.386 E11.71689
G1 F1137.4 X174.732 Y68.012 E11.7311
G1 F1134.8 X174.788 Y67.584 E11.74628
G1 F1165 X174.8 Y67.098 E11.76293
G1 F1200 X174.8 Y65.801 E11.80607
G1 X174.01 Y65.802 E11.83235
G1 F1118.9 X173.574 Y65.831 E11.84794
G1 F977.6 X173.367 Y65.863 E11.85649
G1 F904 X172.857 Y65.869 E11.87901
G1 F944.9 X172.688 Y65.84 E11.88625
G1 F1093.4 X172.352 Y65.802 E11.89859
G1 F1200 X162.547 Y65.801 E12.22471
G1 F1098.4 X162.219 Y65.839 E12.23671
G1 F950.5 X162.042 Y65.869 E12.24425
G1 F902.3 X161.627 Y65.866 E12.2626
G1 F1004.2 X161.316 Y65.816 E12.27512
G1 F1159.4 X160.959 Y65.802 E12.28742
G1 F1200 X160.2 Y65.801 E12.31267
G1 X160.201 Y66.887 E12.34879
G1 F1173.6 X160.209 Y67.145 E12.35757
G1 F1124.1 X160.218 Y67.403 E12.36673
G1 F1098.4 X160.219 Y67.693 E12.37727
G1 F1113.7 X160.267 Y68.007 E12.38865
G1 F1124.1 X160.431 Y68.389 E12.40341
G1 F1116.3 X160.648 Y68.693 E12.41677
G1 F1118.9 X160.948 Y68.944 E12.43072
G1 F1113.7 X161.252 Y69.082 E12.44269
G1 F1111.1 X161.703 Y69.194 E12.45938
G0 F6000 X161.72 Y68.908
G0 X160.797 Y66.319
;TYPE:WALL-INNER
G1 F754.7 X160.757 Y66.387 E12.46355
G1 X160.679 Y66.387 E12.46767
G1 X160.64 Y66.319 E12.47182
G1 X160.679 Y66.251 E12.47597
G1 X160.757 Y66.251 E12.48009
G1 F1500 E6.48009
G0 F6000 X162.106 Y66.239
G0 X162.541 Y66.419
G0 X162.86 Y66.727
G0 X173.029 Y69.036
G1 F1500 E12.48009
G0 F6000 X173.019 Y68.756
;TYPE:WALL-OUTER
G1 F1134.8 X172.533 Y68.564 E12.49847
G1 F1132.1 X172.285 Y68.31 E12.51099
G1 X172.076 Y67.922 E12.52652
G1 F1126.8 X172.042 Y67.527 E12.54057
G1 F1134.8 X172.05 Y67.464 E12.5428
G1 F1173.6 X172.13 Y67.18 E12.55283
G1 F1200 X172.278 Y66.914 E12.56296
G1 X172.509 Y66.682 E12.57385
G1 F1106 X172.915 Y66.402 E12.59165
G1 F967.7 X173.367 Y66.387 E12.6103
G1 F944.9 X173.633 Y66.521 E12.62288
G1 F1006.3 X173.899 Y66.655 E12.63469
G1 F1069 X174.073 Y66.882 E12.64537
G1 F1129.4 X174.247 Y67.109 E12.65548
G1 F1145.6 X174.365 Y67.565 E12.67189
G1 F1132.1 X174.322 Y67.902 E12.68387
G1 F1137.4 X174.21 Y68.176 E12.69425
G1 X173.952 Y68.501 E12.70881
G1 F1132.1 X173.499 Y68.727 E12.72666
G1 F1129.4 X173.019 Y68.756 E12.74365
G0 F6000 X173.029 Y69.036
G0 X173.554 Y68.953
G0 X174.09 Y68.677
G0 X174.406 Y68.3
G0 X174.546 Y67.958
G0 X174.586 Y67.651
G0 X174.363 Y66.317
;TYPE:WALL-INNER
G1 F759.5 X174.323 Y66.385 E12.7478
G1 X174.245 Y66.385 E12.7519
G1 X174.206 Y66.317 E12.75602
G1 X174.245 Y66.249 E12.76014
G1 X174.323 Y66.249 E12.76424
G0 F6000 X173.479 Y66.242
G0 X171.525 Y66.302
G0 X171.524 Y66.603
;TYPE:SKIN
G1 F993.8 X169.913 Y66.603 E12.82894
G1 F995.9 X168.302 Y66.603 E12.8935
G1 X166.691 Y66.603 E12.95807
G1 F997.9 X165.08 Y66.603 E13.0225
G1 F1000 X163.469 Y66.603 E13.0868
;MESH:NONMESH
G0 F300 X163.469 Y66.603 Z0.4
G0 F6000 X163.164 Y66.869
;TIME_ELAPSED:27.887503
;LAYER:1
M106 S85
;TYPE:WALL-INNER
;MESH:pico-holder.stl(1)
G1 F600 X163.269 Y67.126 E13.09604
G1 X163.531 Y66.999 E13.10572
G1 X171.476 Y67.003 E13.36997
G1 X171.735 Y67.105 E13.37923
G1 X171.923 Y66.704 E13.39396
G1 X172.234 Y66.394 E13.40857
G1 X172.579 Y66.202 E13.4217
G1 X162.459 Y66.201 E13.75829
G1 X162.702 Y66.343 E13.76765
G1 X162.999 Y66.624 E13.78125
G1 X163.164 Y66.869 E13.79107
G1 F1500 E7.79107
G0 F6600 X163.241 Y66.802
G0 X163.18 Y67.387
G0 X163.154 Y67.939
G0 X162.996 Y68.313
G0 X162.662 Y68.697
G0 X162.267 Y68.915
G0 X161.672 Y68.992
G1 F1500 E13.79107
G0 F6600 X161.695 Y68.761
;TYPE:WALL-OUTER
G1 F564.7 X161.231 Y68.623 E13.80818
G1 X160.886 Y68.331 E13.82415
G1 F560.7 X160.659 Y67.861 E13.84273
G1 F554.3 X160.654 Y67.4 E13.85933
G1 F560.7 X160.678 Y67.316 E13.86244
G1 F578.3 X160.83 Y66.979 E13.87519
G1 F592.6 X161.058 Y66.717 E13.88689
G1 F575.5 X161.276 Y66.565 E13.8961
G1 F529.8 X161.495 Y66.412 E13.90617
G1 F477.1 X161.872 Y66.385 E13.92198
G1 F495.9 X162.167 Y66.491 E13.93459
G1 F575.5 X162.218 Y66.526 E13.93674
G1 F600 X162.443 Y66.648 E13.94525
G1 X162.667 Y66.848 E13.95524
G1 X162.832 Y67.093 E13.96506
G1 F589.7 X162.963 Y67.449 E13.9779
G1 F574.2 X162.928 Y67.89 E13.99327
G1 F570.1 X162.799 Y68.195 E14.00487
G1 X162.541 Y68.494 E14.01869
G1 F568.7 X162.214 Y68.699 E14.03223
G1 F567.4 X161.695 Y68.761 E14.05062
G0 F6600 X161.686 Y69.196
G1 F558.1 X162.146 Y69.142 E14.06718
G1 F555.6 X162.509 Y69.028 E14.08085
G1 F559.4 X162.825 Y68.811 E14.09452
G1 F563.4 X163.097 Y68.507 E14.10897
G1 F560.7 X163.26 Y68.215 E14.12087
